;START_OF_HEADER
;HEADER_VERSION:0.1
;FLAVOR:Griffin
;GENERATOR.NAME:Cura_SteamEngine
;GENERATOR.VERSION:5.6.0
;GENERATOR.BUILD_DATE:2023-11-28
;TARGET_MACHINE.NAME:Ultimaker S5
;EXTRUDER_TRAIN.0.INITIAL_TEMPERATURE:205
;EXTRUDER_TRAIN.0.MATERIAL.VOLUME_USED:12145
;EXTRUDER_TRAIN.0.MATERIAL.GUID:44a029e6-e31b-4c9e-a12f-9282e29a92ff
;EXTRUDER_TRAIN.0.NOZZLE.DIAMETER:0.4
;EXTRUDER_TRAIN.0.NOZZLE.NAME:AA 0.4
;BUILD_PLATE.INITIAL_TEMPERATURE:60
;BUILD_VOLUME.TEMPERATURE:28
;PRINT.TIME:4495
;PRINT.GROUPS:1
;PRINT.SIZE.MIN.X:129.643
;PRINT.SIZE.MIN.Y:86.243
;PRINT.SIZE.MIN.Z:0.2
;PRINT.SIZE.MAX.X:200.356
;PRINT.SIZE.MAX.Y:157.116
;PRINT.SIZE.MAX.Z:18.2
;SLICE_UUID:31089792-228c-4afb-8865-3529ed6afd42
;END_OF_HEADER
;Generated with Cura_SteamEngine 5.6.0
T0
M82 ;absolute extrusion mode

G92 E0
M190 S60
M109 S205
G280 S1
G0 Z20.001
G1 F2700 E-6.5
;LAYER_COUNT:91
;LAYER:0
M106 S255
M204 S1500
M205 X30 Y30
G1 F600 Z2.2
G0 F9000 X199.762 Y128.042 Z2.2
;TYPE:SKIRT
G1 F600 Z0.2
G1 F2700 E0
G1 X198.133 Y130.167 E0.03358
G1 X196.018 Y131.548 E0.06525
G1 X193.826 Y132.06 E0.09348
G1 X184.742 Y132.06 E0.2074
G1 X184.532 Y133.26 E0.22268
G1 X184.764 Y133.658 E0.22845
G1 X185.755 Y137.068 E0.27298
G1 X185.851 Y138.666 E0.29306
G1 X186.871 Y140.013 E0.31425
G1 X187.579 Y142.481 E0.34645
G1 X187.619 Y144.466 E0.37134
G1 X187.129 Y146.409 E0.39647
G1 X186.237 Y148.162 E0.42114
G1 X185.149 Y149.272 E0.44063
G1 X184.46 Y150.632 E0.45975
G1 X182.512 Y152.622 E0.49467
G1 X180.039 Y153.698 E0.52849
G1 X177.484 Y153.998 E0.56075
G1 X175.121 Y153.373 E0.5914
G1 X173.728 Y152.682 E0.6109
G1 X173.557 Y152.551 E0.61361
G1 X173.382 Y152.826 E0.61769
G1 X171.259 Y154.949 E0.65534
G1 X169.513 Y156.095 E0.68153
G1 X166.232 Y157.013 E0.72426
G1 X163.992 Y157.116 E0.75238
G1 X160.664 Y156.145 E0.79585
G1 X158.83 Y155.061 E0.82257
G1 X156.58 Y152.811 E0.86247
G1 X156.196 Y152.185 E0.87168
G1 X155.908 Y152.116 E0.8754
G1 X154.314 Y152.511 E0.89599
G1 X151.784 Y152.433 E0.92773
G1 X148.883 Y151.14 E0.96756
G1 X147.365 Y149.535 E0.99527
G1 X147.035 Y149.111 E1.002
G1 X145.75 Y147.824 E1.02481
G1 X144.864 Y145.409 E1.05707
G1 X144.637 Y143.073 E1.0865
G1 X144.816 Y142.243 E1.09715
G1 X144.217 Y140.203 E1.12381
G1 X144.171 Y137.878 E1.15297
G1 X144.367 Y137.131 E1.16266
G1 X143.892 Y135.509 E1.18385
G1 X143.845 Y133.105 E1.21401
G1 X144.149 Y132.06 E1.22765
G1 X135.822 Y132.06 E1.33208
G1 X133.661 Y131.466 E1.36018
G1 X131.536 Y129.837 E1.39376
G1 X130.155 Y127.722 E1.42544
G1 X129.643 Y125.53 E1.45367
G1 X129.643 Y114.12 E1.59675
G1 X130.243 Y111.947 E1.62502
G1 X131.827 Y109.859 E1.65789
G1 X133.981 Y108.452 E1.69015
G1 X136.173 Y107.94 E1.71838
G1 X145.71 Y107.94 E1.83798
G1 X144.732 Y106.962 E1.85532
G1 X143.648 Y105.128 E1.88204
G1 X142.771 Y102.129 E1.92122
G1 X142.732 Y100.234 E1.94499
G1 X142.19 Y99.431 E1.95714
G1 X141.289 Y96.404 E1.99675
G1 X141.761 Y93.71 E2.03104
G1 X142.775 Y91.447 E2.06214
G1 X144.609 Y89.647 E2.09437
G1 X146.541 Y88.548 E2.12224
G1 X148.866 Y88.095 E2.15194
G1 X150.981 Y88.249 E2.17854
G1 X152.694 Y87.198 E2.20374
G1 X155.85 Y86.306 E2.24487
G1 X158.04 Y86.243 E2.27234
G1 X161.294 Y87.16 E2.31474
G1 X161.949 Y87.533 E2.32419
G1 X163.103 Y87.497 E2.33867
G1 X166.374 Y88.418 E2.38128
G1 X166.57 Y88.364 E2.38383
G1 X167.661 Y87.732 E2.39965
G1 X170.717 Y86.865 E2.43948
G1 X172.91 Y86.802 E2.46699
G1 X176.156 Y87.718 E2.50929
G1 X178.17 Y88.868 E2.53837
G1 X178.785 Y89.518 E2.54959
G1 X179.583 Y89.843 E2.5604
G1 X179.951 Y90.093 E2.56598
G1 X180.652 Y90.331 E2.57526
G1 X182.409 Y91.249 E2.60012
G1 X182.984 Y91.756 E2.60974
G1 X184.46 Y93.883 E2.6422
G1 X185.18 Y96.142 E2.67193
G1 X185.194 Y97.854 E2.6934
G1 X185.154 Y98.128 E2.69688
G1 X185.749 Y100.156 E2.72338
G1 X185.887 Y102.489 E2.75269
G1 X184.982 Y105.7 E2.79452
G1 X185.091 Y106.185 E2.80076
G1 X185.194 Y107.94 E2.8228
G1 X194.176 Y107.94 E2.93544
G1 X196.349 Y108.54 E2.96371
G1 X198.437 Y110.124 E2.99658
G1 X199.844 Y112.278 E3.02884
G1 X200.356 Y114.47 E3.05707
G1 X200.356 Y125.881 E3.20017
G1 X199.762 Y128.042 E3.22827
G0 F9000 X199.396 Y127.863
G1 F2700 X197.859 Y129.868 E3.25995
G1 X195.859 Y131.174 E3.28991
G1 X193.778 Y131.66 E3.31671
G1 X184.406 Y131.66 E3.43424
G1 X184.112 Y133.342 E3.45565
G1 X184.38 Y133.77 E3.46198
G1 X185.359 Y137.138 E3.50597
G1 X185.459 Y138.812 E3.527
G1 X186.507 Y140.195 E3.54876
G1 X187.18 Y142.542 E3.57937
G1 X187.218 Y144.42 E3.60293
G1 X186.752 Y146.267 E3.62682
G1 X185.908 Y147.926 E3.65016
G1 X184.82 Y149.036 E3.66965
G1 X184.131 Y150.396 E3.68877
G1 X182.281 Y152.286 E3.72194
G1 X179.932 Y153.308 E3.75406
G1 X177.514 Y153.592 E3.78459
G1 X175.261 Y152.996 E3.81382
G1 X173.906 Y152.324 E3.83278
G1 X173.455 Y151.935 E3.84025
G1 X173.099 Y152.543 E3.84909
G1 X171.004 Y154.638 E3.88624
G1 X169.345 Y155.727 E3.91113
G1 X166.17 Y156.615 E3.95247
G1 X164.039 Y156.713 E3.97922
G1 X160.824 Y155.775 E4.02122
G1 X159.078 Y154.743 E4.04666
G1 X156.863 Y152.528 E4.08594
G1 X156.454 Y151.836 E4.09602
G1 X155.908 Y151.704 E4.10306
G1 X154.273 Y152.109 E4.12419
G1 X151.874 Y152.035 E4.15429
G1 X149.12 Y150.808 E4.19209
G1 X147.656 Y149.26 E4.21881
G1 X147.334 Y148.844 E4.22541
G1 X146.096 Y147.604 E4.24738
G1 X145.257 Y145.317 E4.27793
G1 X145.041 Y143.096 E4.30592
G1 X145.228 Y142.227 E4.31706
G1 X144.616 Y140.141 E4.34433
G1 X144.571 Y137.87 E4.37281
G1 X144.784 Y137.129 E4.38248
G1 X144.291 Y135.447 E4.40446
G1 X144.246 Y133.158 E4.43317
G1 X144.682 Y131.66 E4.45273
G1 X135.877 Y131.66 E4.56315
G1 X133.84 Y131.1 E4.58965
G1 X131.835 Y129.563 E4.62133
G1 X130.529 Y127.563 E4.65128
G1 X130.043 Y125.482 E4.67808
G1 X130.043 Y114.176 E4.81986
G1 X130.609 Y112.127 E4.84652
G1 X132.104 Y110.156 E4.87754
G1 X134.14 Y108.826 E4.90804
G1 X136.221 Y108.34 E4.93484
G1 X146.676 Y108.34 E5.06595
G1 X145.05 Y106.714 E5.09478
G1 X144.018 Y104.968 E5.12022
G1 X143.17 Y102.068 E5.15811
G1 X143.13 Y100.109 E5.18268
G1 X142.555 Y99.258 E5.19556
G1 X141.699 Y96.381 E5.2332
G1 X142.147 Y93.827 E5.26572
G1 X143.109 Y91.679 E5.29523
G1 X144.849 Y89.971 E5.32581
G1 X146.682 Y88.929 E5.35225
G1 X148.892 Y88.498 E5.38049
G1 X150.808 Y88.638 E5.40458
G1 X151.053 Y88.705 E5.40776
G1 X151.209 Y88.573 E5.41033
G1 X152.854 Y87.569 E5.43449
G1 X155.911 Y86.705 E5.47433
G1 X157.991 Y86.645 E5.50043
G1 X161.14 Y87.532 E5.54145
G1 X161.85 Y87.937 E5.5517
G1 X163.055 Y87.899 E5.56682
G1 X166.121 Y88.762 E5.60676
G1 X166.316 Y88.849 E5.60944
G1 X166.726 Y88.735 E5.61478
G1 X167.816 Y88.104 E5.63057
G1 X170.778 Y87.264 E5.66918
G1 X172.86 Y87.204 E5.6953
G1 X176.003 Y88.09 E5.73625
G1 X177.918 Y89.184 E5.76391
G1 X178.553 Y89.855 E5.77549
G1 X179.393 Y90.197 E5.78687
G1 X179.775 Y90.456 E5.79266
G1 X180.467 Y90.686 E5.8018
G1 X182.224 Y91.604 E5.82666
G1 X182.655 Y91.984 E5.83387
G1 X184.098 Y94.063 E5.8656
G1 X184.78 Y96.205 E5.89379
G1 X184.798 Y97.797 E5.91376
G1 X184.746 Y98.157 E5.91832
G1 X185.353 Y100.227 E5.94537
G1 X185.484 Y102.444 E5.97322
G1 X184.619 Y105.512 E6.01319
G1 X184.56 Y105.65 E6.01508
G1 X184.692 Y106.208 E6.02227
G1 X184.803 Y108.099 E6.04602
G1 X184.763 Y108.34 E6.04909
G1 X194.12 Y108.34 E6.16643
G1 X196.169 Y108.906 E6.19308
G1 X198.14 Y110.401 E6.22411
G1 X199.47 Y112.437 E6.2546
G1 X199.956 Y114.518 E6.2814
G1 X199.956 Y125.826 E6.42321
G1 X199.396 Y127.863 E6.4497
G0 F9000 X199.03 Y127.684
G1 F2700 X197.585 Y129.569 E6.47949
G1 X195.7 Y130.8 E6.50772
G1 X193.73 Y131.26 E6.53309
G1 X183.991 Y131.26 E6.65522
G1 X184.009 Y131.636 E6.65994
G1 X183.69 Y133.432 E6.68281
G1 X183.996 Y133.882 E6.68964
G1 X184.963 Y137.208 E6.73307
G1 X185.067 Y138.958 E6.75506
G1 X186.144 Y140.379 E6.77742
G1 X186.781 Y142.6 E6.80639
G1 X186.817 Y144.374 E6.82865
G1 X186.375 Y146.125 E6.85129
G1 X185.579 Y147.69 E6.87331
G1 X184.491 Y148.8 E6.8928
G1 X183.802 Y150.16 E6.91192
G1 X182.05 Y151.95 E6.94333
G1 X179.825 Y152.918 E6.97376
G1 X177.544 Y153.186 E7.00256
G1 X175.401 Y152.619 E7.03036
G1 X174.084 Y151.966 E7.04879
G1 X173.512 Y151.447 E7.05848
G1 X173.244 Y151.493 E7.06189
G1 X172.816 Y152.26 E7.0729
G1 X170.749 Y154.327 E7.10956
G1 X169.177 Y155.359 E7.13314
G1 X166.108 Y156.217 E7.17311
G1 X164.086 Y156.31 E7.19849
G1 X160.984 Y155.405 E7.23901
G1 X159.326 Y154.425 E7.26316
G1 X157.181 Y152.28 E7.3012
G1 X156.712 Y151.487 E7.31276
G1 X155.908 Y151.292 E7.32313
G1 X154.232 Y151.707 E7.34479
G1 X151.964 Y151.637 E7.37324
G1 X149.357 Y150.476 E7.40903
G1 X147.947 Y148.985 E7.43476
G1 X147.634 Y148.578 E7.4412
G1 X146.442 Y147.384 E7.46236
G1 X145.65 Y145.225 E7.4912
G1 X145.445 Y143.119 E7.51773
G1 X145.64 Y142.211 E7.52938
G1 X145.015 Y140.079 E7.55724
G1 X144.972 Y137.921 E7.58431
G1 X145.201 Y137.127 E7.59467
G1 X144.69 Y135.385 E7.61744
G1 X144.647 Y133.211 E7.6447
G1 X145.215 Y131.26 E7.67019
G1 X135.932 Y131.26 E7.7866
G1 X134.019 Y130.734 E7.81148
G1 X132.134 Y129.289 E7.84126
G1 X130.903 Y127.404 E7.8695
G1 X130.443 Y125.434 E7.89487
G1 X130.443 Y114.231 E8.03536
G1 X130.974 Y112.308 E8.06037
G1 X132.381 Y110.453 E8.08957
G1 X134.299 Y109.2 E8.1183
G1 X136.269 Y108.74 E8.14367
G1 X147.642 Y108.74 E8.28629
G1 X145.368 Y106.466 E8.32662
G1 X144.388 Y104.808 E8.35077
G1 X143.569 Y102.007 E8.38737
G1 X143.532 Y100.207 E8.40995
G1 X143.554 Y100.021 E8.4123
G1 X142.92 Y99.082 E8.4265
G1 X142.109 Y96.358 E8.46215
G1 X142.532 Y93.946 E8.49285
G1 X143.443 Y91.912 E8.5208
G1 X145.092 Y90.294 E8.54977
G1 X146.823 Y89.309 E8.57475
G1 X148.917 Y88.901 E8.6015
G1 X150.779 Y89.037 E8.62492
G1 X151.151 Y89.156 E8.62981
G1 X151.417 Y88.914 E8.63432
G1 X153.013 Y87.94 E8.65777
G1 X155.972 Y87.104 E8.69633
G1 X157.942 Y87.047 E8.72104
G1 X160.982 Y87.903 E8.76065
G1 X161.749 Y88.34 E8.77172
G1 X163.007 Y88.301 E8.7875
G1 X166.013 Y89.147 E8.82666
G1 X166.278 Y89.275 E8.83035
G1 X166.884 Y89.106 E8.83824
G1 X167.973 Y88.475 E8.85403
G1 X170.839 Y87.663 E8.89138
G1 X172.811 Y87.606 E8.91612
G1 X175.849 Y88.462 E8.9557
G1 X177.666 Y89.5 E8.98195
G1 X178.321 Y90.192 E8.99389
G1 X179.203 Y90.551 E9.00584
G1 X179.6 Y90.82 E9.01185
G1 X180.282 Y91.041 E9.02084
G1 X182.039 Y91.959 E9.0457
G1 X182.326 Y92.212 E9.0505
G1 X183.736 Y94.243 E9.0815
G1 X184.381 Y96.268 E9.10815
G1 X184.402 Y97.74 E9.12662
G1 X184.338 Y98.187 E9.13228
G1 X184.957 Y100.298 E9.15987
G1 X185.081 Y102.399 E9.18626
G1 X184.234 Y105.403 E9.2254
G1 X184.138 Y105.609 E9.22825
G1 X184.293 Y106.231 E9.23629
G1 X184.404 Y108.122 E9.26004
G1 X184.253 Y108.74 E9.26802
G1 X194.065 Y108.74 E9.39107
G1 X195.988 Y109.271 E9.41608
G1 X197.843 Y110.678 E9.44528
G1 X199.096 Y112.596 E9.47401
G1 X199.556 Y114.566 E9.49938
G1 X199.556 Y125.771 E9.6399
G1 X199.03 Y127.684 E9.66478
G0 F9000 X198.664 Y127.505
G1 F2700 X197.311 Y129.27 E9.69266
G1 X195.541 Y130.426 E9.71917
G1 X193.682 Y130.86 E9.74311
G1 X183.556 Y130.86 E9.8701
G1 X183.615 Y131.566 E9.87898
G1 X183.318 Y133.236 E9.90025
G1 X183.223 Y133.476 E9.90349
G1 X183.612 Y133.994 E9.91161
G1 X184.567 Y137.278 E9.9545
G1 X184.675 Y139.104 E9.97744
G1 X185.781 Y140.563 E10.0004
G1 X186.382 Y142.658 E10.02773
G1 X186.416 Y144.328 E10.04868
G1 X185.998 Y145.983 E10.07009
G1 X185.25 Y147.454 E10.09078
G1 X184.124 Y148.604 E10.11096
G1 X184.069 Y148.748 E10.1129
G1 X183.473 Y149.924 E10.12943
G1 X181.819 Y151.614 E10.15908
G1 X179.718 Y152.528 E10.18782
G1 X177.574 Y152.78 E10.21489
G1 X175.541 Y152.242 E10.24126
G1 X174.262 Y151.608 E10.25916
G1 X173.642 Y151.019 E10.26989
G1 X172.988 Y151.131 E10.27821
G1 X172.495 Y152.015 E10.2909
G1 X170.494 Y154.016 E10.32639
G1 X169.009 Y154.991 E10.34866
G1 X166.047 Y155.819 E10.38723
G1 X164.133 Y155.907 E10.41126
G1 X161.144 Y155.035 E10.45031
G1 X159.574 Y154.107 E10.47318
G1 X157.499 Y152.032 E10.50998
G1 X156.954 Y151.11 E10.52341
G1 X156.585 Y151.072 E10.52806
G1 X155.916 Y150.878 E10.53679
G1 X154.191 Y151.305 E10.55908
G1 X152.054 Y151.239 E10.58589
G1 X149.594 Y150.144 E10.61966
G1 X148.238 Y148.71 E10.64441
G1 X147.936 Y148.314 E10.65065
G1 X146.788 Y147.164 E10.67103
G1 X146.043 Y145.133 E10.69816
G1 X145.849 Y143.142 E10.72325
G1 X146.053 Y142.195 E10.73539
G1 X145.414 Y140.017 E10.76386
G1 X145.373 Y137.972 E10.78951
G1 X145.617 Y137.126 E10.80055
G1 X145.089 Y135.324 E10.8241
G1 X145.048 Y133.264 E10.84994
G1 X145.748 Y130.86 E10.88134
G1 X135.987 Y130.86 E11.00374
G1 X134.198 Y130.368 E11.02701
G1 X132.433 Y129.015 E11.0549
G1 X131.277 Y127.245 E11.08141
G1 X130.843 Y125.386 E11.10535
G1 X130.843 Y114.287 E11.24453
G1 X131.34 Y112.488 E11.26794
G1 X132.658 Y110.75 E11.29529
G1 X134.458 Y109.574 E11.32226
G1 X136.317 Y109.14 E11.3462
G1 X149.108 Y109.14 E11.5066
G1 X149.004 Y109.036 E11.50844
G1 X148.233 Y108.765 E11.51869
G1 X145.686 Y106.218 E11.56386
G1 X144.758 Y104.648 E11.58673
G1 X143.968 Y101.946 E11.62204
G1 X143.932 Y100.199 E11.64395
G1 X143.973 Y99.927 E11.6474
G1 X143.285 Y98.909 E11.66281
G1 X142.519 Y96.335 E11.69648
G1 X142.917 Y94.065 E11.72539
G1 X143.778 Y92.143 E11.7518
G1 X145.332 Y90.618 E11.7791
G1 X146.964 Y89.689 E11.80265
G1 X148.942 Y89.304 E11.82792
G1 X150.75 Y89.436 E11.85065
G1 X151.249 Y89.617 E11.85731
G1 X151.625 Y89.255 E11.86385
G1 X153.172 Y88.311 E11.88658
G1 X156.033 Y87.503 E11.92386
G1 X157.893 Y87.449 E11.9472
G1 X160.828 Y88.275 E11.98543
G1 X161.65 Y88.744 E11.9973
G1 X162.959 Y88.703 E12.01373
G1 X165.905 Y89.532 E12.0521
G1 X166.233 Y89.702 E12.05674
G1 X167.04 Y89.477 E12.06724
G1 X168.128 Y88.847 E12.08301
G1 X170.9 Y88.062 E12.11914
G1 X172.762 Y88.008 E12.1425
G1 X175.695 Y88.834 E12.18071
G1 X177.416 Y89.817 E12.20556
G1 X178.09 Y90.529 E12.21786
G1 X179.013 Y90.905 E12.23036
G1 X179.426 Y91.185 E12.23661
G1 X180.097 Y91.396 E12.24544
G1 X181.854 Y92.314 E12.27029
G1 X181.997 Y92.44 E12.27268
G1 X183.374 Y94.423 E12.30296
G1 X183.982 Y96.332 E12.32808
G1 X184.002 Y97.746 E12.34582
G1 X183.929 Y98.215 E12.35177
G1 X184.561 Y100.369 E12.37992
G1 X184.678 Y102.355 E12.40487
G1 X183.871 Y105.234 E12.44236
G1 X183.714 Y105.571 E12.44703
G1 X183.894 Y106.254 E12.45588
G1 X184.005 Y108.145 E12.47964
G1 X183.726 Y109.14 E12.4926
G1 X194.009 Y109.14 E12.62155
G1 X195.808 Y109.637 E12.64496
G1 X197.546 Y110.955 E12.67231
G1 X198.722 Y112.755 E12.69927
G1 X199.156 Y114.614 E12.72321
G1 X199.156 Y125.716 E12.86244
G1 X198.664 Y127.505 E12.8857
G0 F9000 X198.298 Y127.326
G1 F2700 X197.037 Y128.971 E12.9117
G1 X195.379 Y130.053 E12.93652
G1 X193.638 Y130.46 E12.95894
G1 X183.111 Y130.46 E13.09096
G1 X183.221 Y131.496 E13.10402
G1 X182.924 Y133.166 E13.12529
G1 X182.754 Y133.54 E13.13044
G1 X183.228 Y134.106 E13.1397
G1 X184.171 Y137.348 E13.18204
G1 X184.265 Y138.945 E13.20211
G1 X184.233 Y139.184 E13.20513
G1 X185.418 Y140.747 E13.22973
G1 X185.983 Y142.716 E13.25541
G1 X186.015 Y144.282 E13.27506
G1 X185.621 Y145.841 E13.29522
G1 X184.921 Y147.218 E13.31459
G1 X183.778 Y148.386 E13.33509
G1 X183.712 Y148.567 E13.3375
G1 X183.144 Y149.688 E13.35326
G1 X181.588 Y151.278 E13.38116
G1 X179.611 Y152.138 E13.4082
G1 X177.604 Y152.374 E13.43354
G1 X175.681 Y151.865 E13.45848
G1 X174.493 Y151.276 E13.47511
G1 X173.758 Y150.578 E13.48782
G1 X173.188 Y150.721 E13.49519
G1 X172.748 Y150.741 E13.50072
G1 X172.174 Y151.77 E13.51549
G1 X170.239 Y153.705 E13.54981
G1 X168.841 Y154.623 E13.57078
G1 X165.986 Y155.421 E13.60796
G1 X164.18 Y155.504 E13.63063
G1 X161.302 Y154.664 E13.66823
G1 X159.823 Y153.79 E13.68977
G1 X157.817 Y151.784 E13.72535
G1 X157.192 Y150.727 E13.74075
G1 X156.697 Y150.688 E13.74697
G1 X155.864 Y150.446 E13.75785
G1 X155.654 Y150.531 E13.76069
G1 X154.15 Y150.903 E13.78012
G1 X152.144 Y150.841 E13.80529
G1 X149.829 Y149.811 E13.83706
