;START_OF_HEADER
;HEADER_VERSION:0.1
;FLAVOR:Griffin
;GENERATOR.NAME:Cura_SteamEngine
;GENERATOR.VERSION:5.6.0
;GENERATOR.BUILD_DATE:2023-11-28
;TARGET_MACHINE.NAME:Ultimaker S5
;EXTRUDER_TRAIN.0.INITIAL_TEMPERATURE:205
;EXTRUDER_TRAIN.0.MATERIAL.VOLUME_USED:3850
;EXTRUDER_TRAIN.0.MATERIAL.GUID:44a029e6-e31b-4c9e-a12f-9282e29a92ff
;EXTRUDER_TRAIN.0.NOZZLE.DIAMETER:0.4
;EXTRUDER_TRAIN.0.NOZZLE.NAME:AA 0.4
;BUILD_PLATE.INITIAL_TEMPERATURE:60
;BUILD_VOLUME.TEMPERATURE:28
;PRINT.TIME:1074
;PRINT.GROUPS:1
;PRINT.SIZE.MIN.X:134.954
;PRINT.SIZE.MIN.Y:91.619
;PRINT.SIZE.MIN.Z:0.2
;PRINT.SIZE.MAX.X:195.045
;PRINT.SIZE.MAX.Y:148.35
;PRINT.SIZE.MAX.Z:5
;SLICE_UUID:fe5f96c4-e534-471c-b5e9-6eda91b7f643
;END_OF_HEADER
;Generated with Cura_SteamEngine 5.6.0
T0
M82 ;absolute extrusion mode

G92 E0
M190 S60
M109 S205
G280 S1
G0 Z20.001
G1 F2700 E-6.5
;LAYER_COUNT:15
;LAYER:0
M106 S255
M204 S1500
M205 X30 Y30
G1 F600 Z2.2
G0 F9000 X192.742 Y138.065 Z2.2
;TYPE:SKIRT
G1 F600 Z0.2
G1 F2700 E0
G1 X190.662 Y139.931 E0.03504
G1 X188.615 Y141.115 E0.0647
G1 X187.015 Y141.616 E0.08572
G1 X184.739 Y141.965 E0.1146
G1 X177.365 Y141.979 E0.20707
G1 X177.106 Y142.356 E0.21281
G1 X175.888 Y143.775 E0.23626
G1 X174.773 Y144.813 E0.25536
G1 X173.186 Y145.992 E0.28015
G1 X172.324 Y146.506 E0.29274
G1 X170.324 Y147.427 E0.32035
G1 X169.459 Y147.721 E0.33181
G1 X167.114 Y148.244 E0.36194
G1 X166.089 Y148.35 E0.37486
G1 X163.759 Y148.339 E0.40408
G1 X162.648 Y148.203 E0.41812
G1 X160.483 Y147.696 E0.446
G1 X159.314 Y147.282 E0.46155
G1 X157.798 Y146.572 E0.48255
G1 X156.602 Y145.851 E0.50006
G1 X154.993 Y144.613 E0.52552
G1 X153.884 Y143.536 E0.5449
G1 X152.816 Y142.255 E0.56582
G1 X152.62 Y141.963 E0.57023
G1 X144.424 Y141.895 E0.67301
G1 X143.19 Y141.671 E0.68874
G1 X141.402 Y141.126 E0.71218
G1 X139.337 Y139.931 E0.7421
G1 X137.251 Y138.059 E0.77725
G1 X135.812 Y135.562 E0.81339
G1 X135.223 Y133.558 E0.83958
G1 X134.99 Y132.017 E0.85913
G1 X134.954 Y123.646 E0.9641
G1 X135.558 Y121.459 E0.99256
G1 X136.655 Y120.024 E1.01521
G1 X135.465 Y118.206 E1.04246
G1 X134.954 Y115.972 E1.0712
G1 X135.038 Y107.487 E1.17761
G1 X135.265 Y106.246 E1.19343
G1 X135.809 Y104.463 E1.2168
G1 X137.001 Y102.404 E1.24664
G1 X138.865 Y100.325 E1.28166
G1 X141.396 Y98.875 E1.31823
G1 X143.663 Y98.222 E1.34782
G1 X144.578 Y98.084 E1.35942
G1 X152.618 Y98.032 E1.46025
G1 X152.805 Y97.761 E1.46438
G1 X154.187 Y96.139 E1.4911
G1 X154.967 Y95.401 E1.50457
G1 X156.813 Y94.007 E1.53358
G1 X157.675 Y93.493 E1.54616
G1 X159.675 Y92.572 E1.57377
G1 X160.54 Y92.278 E1.58523
G1 X162.885 Y91.755 E1.61536
G1 X163.92 Y91.647 E1.62841
G1 X165.346 Y91.619 E1.6463
G1 X167.483 Y91.824 E1.67322
G1 X169.42 Y92.274 E1.69816
G1 X170.964 Y92.828 E1.71873
G1 X171.819 Y93.226 E1.73055
G1 X173.635 Y94.321 E1.75715
G1 X175.152 Y95.513 E1.78134
G1 X175.982 Y96.32 E1.79586
G1 X177.4 Y98.034 E1.82375
G1 X185.441 Y98.094 E1.92459
G1 X186.973 Y98.373 E1.94412
G1 X188.682 Y98.91 E1.96659
G1 X190.609 Y100.023 E1.99449
G1 X192.316 Y101.548 E2.0232
G1 X193.642 Y103.393 E2.05169
G1 X194.543 Y105.4 E2.07928
G1 X195.045 Y107.78 E2.10978
G1 X194.961 Y132.505 E2.41984
G1 X194.736 Y133.748 E2.43569
G1 X194.182 Y135.568 E2.45954
G1 X192.742 Y138.065 E2.49569
G0 F9000 X192.426 Y137.811
G1 F2700 X190.424 Y139.607 E2.52942
G1 X188.455 Y140.746 E2.55794
G1 X186.896 Y141.234 E2.57843
G1 X184.738 Y141.565 E2.60581
G1 X177.154 Y141.579 E2.70091
G1 X176.776 Y142.129 E2.70928
G1 X175.615 Y143.482 E2.73164
G1 X174.5 Y144.52 E2.75074
G1 X172.981 Y145.648 E2.77447
G1 X172.119 Y146.162 E2.78706
G1 X170.195 Y147.048 E2.81362
G1 X169.33 Y147.342 E2.82508
G1 X167.072 Y147.846 E2.85409
G1 X166.09 Y147.95 E2.86647
G1 X163.808 Y147.942 E2.89509
G1 X162.697 Y147.806 E2.90913
G1 X160.617 Y147.319 E2.93592
G1 X159.448 Y146.905 E2.95147
G1 X158.005 Y146.229 E2.97145
G1 X156.809 Y145.508 E2.98896
G1 X155.272 Y144.326 E3.01328
G1 X154.163 Y143.249 E3.03266
G1 X153.148 Y142.032 E3.05254
G1 X152.834 Y141.565 E3.05959
G1 X144.427 Y141.495 E3.16503
G1 X143.307 Y141.288 E3.17931
G1 X141.559 Y140.755 E3.20223
G1 X139.575 Y139.607 E3.23097
G1 X137.567 Y137.805 E3.2648
G1 X136.182 Y135.402 E3.29959
G1 X135.619 Y133.498 E3.32448
G1 X135.386 Y131.957 E3.34403
G1 X135.354 Y123.7 E3.44758
G1 X135.923 Y121.64 E3.47438
G1 X137.145 Y120.042 E3.4996
G1 X135.839 Y118.046 E3.52952
G1 X135.354 Y115.929 E3.55675
G1 X135.432 Y107.558 E3.66173
G1 X135.648 Y106.363 E3.67696
G1 X136.18 Y104.62 E3.69981
G1 X137.325 Y102.642 E3.72847
G1 X139.12 Y100.64 E3.76219
G1 X141.554 Y99.245 E3.79738
G1 X143.723 Y98.618 E3.82569
G1 X144.638 Y98.48 E3.83729
G1 X152.829 Y98.431 E3.94001
G1 X153.134 Y97.988 E3.94676
G1 X154.462 Y96.43 E3.97243
G1 X155.242 Y95.692 E3.9859
G1 X157.018 Y94.351 E4.0138
G1 X157.88 Y93.837 E4.02639
G1 X159.804 Y92.951 E4.05295
G1 X160.669 Y92.657 E4.06441
G1 X162.927 Y92.153 E4.09342
G1 X163.928 Y92.047 E4.10605
G1 X165.354 Y92.019 E4.12393
G1 X167.393 Y92.214 E4.14962
G1 X169.285 Y92.651 E4.17397
G1 X170.795 Y93.191 E4.19408
G1 X171.65 Y93.589 E4.20591
G1 X173.428 Y94.663 E4.23195
G1 X174.873 Y95.8 E4.25501
G1 X175.703 Y96.607 E4.26953
G1 X177.006 Y98.185 E4.29519
G1 X177.168 Y98.433 E4.29891
G1 X185.369 Y98.488 E4.40175
G1 X186.901 Y98.767 E4.42128
G1 X188.519 Y99.278 E4.44256
G1 X190.374 Y100.349 E4.46942
G1 X192.016 Y101.815 E4.49702
G1 X193.293 Y103.593 E4.52448
G1 X194.162 Y105.527 E4.55107
G1 X194.645 Y107.819 E4.58044
G1 X194.561 Y132.504 E4.89
G1 X194.353 Y133.632 E4.90438
G1 X193.813 Y135.406 E4.92764
G1 X192.426 Y137.811 E4.96245
G0 F9000 X192.112 Y137.555
G1 F2700 X190.186 Y139.283 E4.9949
G1 X188.295 Y140.377 E5.0223
G1 X186.777 Y140.852 E5.04225
G1 X184.737 Y141.165 E5.06813
G1 X176.943 Y141.179 E5.16587
G1 X176.446 Y141.902 E5.17687
G1 X175.342 Y143.189 E5.19813
G1 X174.227 Y144.227 E5.21724
G1 X172.776 Y145.304 E5.2399
G1 X171.914 Y145.818 E5.25248
G1 X170.066 Y146.669 E5.278
G1 X169.201 Y146.963 E5.28945
G1 X167.029 Y147.448 E5.31736
G1 X166.091 Y147.55 E5.3292
G1 X163.856 Y147.545 E5.35722
G1 X162.788 Y147.416 E5.37071
G1 X160.751 Y146.942 E5.39694
G1 X159.582 Y146.528 E5.41249
G1 X158.212 Y145.886 E5.43147
G1 X157.016 Y145.165 E5.44898
G1 X155.551 Y144.039 E5.47215
G1 X154.442 Y142.962 E5.49154
G1 X153.48 Y141.808 E5.51038
G1 X153.048 Y141.167 E5.52007
G1 X144.499 Y141.101 E5.62728
G1 X143.424 Y140.905 E5.64098
G1 X141.716 Y140.384 E5.66338
G1 X139.813 Y139.283 E5.69095
G1 X137.883 Y137.551 E5.72347
G1 X136.551 Y135.24 E5.75692
G1 X136.015 Y133.438 E5.78049
G1 X135.782 Y131.897 E5.80004
G1 X135.754 Y123.755 E5.90214
G1 X136.288 Y121.821 E5.9273
G1 X137.705 Y119.968 E5.95656
G1 X137.409 Y119.715 E5.96144
G1 X136.213 Y117.886 E5.98884
G1 X135.754 Y115.886 E6.01458
G1 X135.832 Y107.562 E6.11897
G1 X136.031 Y106.48 E6.13276
G1 X136.551 Y104.777 E6.15509
G1 X137.649 Y102.88 E6.18258
G1 X139.375 Y100.955 E6.215
G1 X141.711 Y99.616 E6.24877
G1 X143.783 Y99.014 E6.27583
G1 X144.698 Y98.876 E6.28743
G1 X153.041 Y98.83 E6.39206
G1 X153.464 Y98.215 E6.40142
G1 X154.737 Y96.721 E6.42603
G1 X155.517 Y95.983 E6.4395
G1 X157.223 Y94.695 E6.4663
G1 X158.085 Y94.181 E6.47889
G1 X159.933 Y93.33 E6.5044
G1 X160.798 Y93.036 E6.51586
G1 X162.97 Y92.551 E6.54377
G1 X163.936 Y92.447 E6.55595
G1 X165.362 Y92.419 E6.57384
G1 X167.304 Y92.604 E6.5983
G1 X169.151 Y93.028 E6.62207
G1 X170.626 Y93.554 E6.6417
G1 X171.481 Y93.952 E6.65353
G1 X173.181 Y94.978 E6.67843
G1 X174.594 Y96.087 E6.70096
G1 X175.424 Y96.894 E6.71547
G1 X176.671 Y98.404 E6.74003
G1 X176.951 Y98.832 E6.74645
G1 X185.297 Y98.882 E6.85111
G1 X186.829 Y99.161 E6.87064
G1 X188.357 Y99.646 E6.89074
G1 X190.137 Y100.673 E6.91651
G1 X191.717 Y102.085 E6.94309
G1 X192.944 Y103.793 E6.96946
G1 X193.78 Y105.654 E6.99504
G1 X194.245 Y107.859 E7.0233
G1 X194.167 Y132.432 E7.33146
G1 X193.97 Y133.515 E7.34526
G1 X193.442 Y135.249 E7.36799
G1 X192.112 Y137.555 E7.40138
G0 F9000 X191.798 Y137.299
G1 F2700 X189.948 Y138.959 E7.43255
G1 X188.136 Y140.007 E7.4588
G1 X186.657 Y140.47 E7.47823
G1 X184.736 Y140.765 E7.5026
G1 X176.732 Y140.779 E7.60298
G1 X176.116 Y141.675 E7.61661
G1 X175.069 Y142.896 E7.63678
G1 X173.954 Y143.934 E7.65589
G1 X172.571 Y144.96 E7.67748
G1 X171.709 Y145.474 E7.69007
G1 X169.937 Y146.29 E7.71453
G1 X169.072 Y146.584 E7.72599
G1 X166.985 Y147.05 E7.7528
G1 X166.091 Y147.15 E7.76409
G1 X163.903 Y147.148 E7.79152
G1 X162.878 Y147.026 E7.80447
G1 X160.885 Y146.565 E7.83012
G1 X159.716 Y146.151 E7.84567
G1 X158.419 Y145.543 E7.86364
G1 X157.223 Y144.822 E7.88115
G1 X155.83 Y143.752 E7.90318
G1 X154.721 Y142.675 E7.92256
G1 X153.812 Y141.584 E7.94037
G1 X153.262 Y140.769 E7.9527
G1 X144.57 Y140.707 E8.0617
G1 X143.541 Y140.522 E8.07482
G1 X141.873 Y140.013 E8.09669
G1 X140.051 Y138.959 E8.12308
G1 X138.199 Y137.297 E8.15429
G1 X136.92 Y135.078 E8.18641
G1 X136.411 Y133.378 E8.20866
G1 X136.178 Y131.837 E8.2282
G1 X136.154 Y123.81 E8.32887
G1 X136.653 Y122.002 E8.35239
G1 X137.935 Y120.326 E8.37885
G1 X138.396 Y119.996 E8.38596
G1 X137.744 Y119.496 E8.39626
G1 X136.587 Y117.727 E8.42277
G1 X136.154 Y115.842 E8.44702
G1 X136.226 Y107.633 E8.54997
G1 X136.414 Y106.597 E8.56317
G1 X136.922 Y104.934 E8.58498
G1 X137.973 Y103.118 E8.61129
G1 X139.63 Y101.27 E8.64242
G1 X141.869 Y99.987 E8.67478
G1 X143.843 Y99.41 E8.70057
G1 X144.758 Y99.272 E8.71217
G1 X153.253 Y99.229 E8.81871
G1 X153.794 Y98.442 E8.83068
G1 X155.012 Y97.012 E8.85424
G1 X155.792 Y96.274 E8.8677
G1 X157.428 Y95.039 E8.89341
G1 X158.29 Y94.525 E8.906
G1 X160.062 Y93.709 E8.93046
G1 X160.927 Y93.415 E8.94192
G1 X163.014 Y92.949 E8.96873
G1 X163.944 Y92.847 E8.98047
G1 X165.37 Y92.819 E8.99835
G1 X167.215 Y92.994 E9.02159
G1 X169.017 Y93.405 E9.04477
G1 X170.457 Y93.917 E9.06394
G1 X171.312 Y94.315 E9.07576
G1 X172.974 Y95.32 E9.10012
G1 X174.315 Y96.374 E9.12151
G1 X175.145 Y97.181 E9.13603
G1 X176.336 Y98.623 E9.15948
G1 X176.734 Y99.231 E9.16859
G1 X185.225 Y99.276 E9.27507
G1 X186.757 Y99.555 E9.2946
G1 X188.196 Y100.015 E9.31355
G1 X189.902 Y100.999 E9.33824
G1 X191.417 Y102.352 E9.36372
G1 X192.595 Y103.993 E9.38905
G1 X193.399 Y105.781 E9.41363
G1 X193.845 Y107.898 E9.44076
G1 X193.773 Y132.361 E9.74754
G1 X193.587 Y133.398 E9.76075
G1 X193.071 Y135.092 E9.78296
G1 X191.798 Y137.299 E9.81491
G0 F9000 X191.484 Y137.043
G1 F2700 X189.71 Y138.635 E9.8448
G1 X187.976 Y139.638 E9.86992
G1 X186.538 Y140.088 E9.88882
G1 X184.735 Y140.365 E9.91169
G1 X176.521 Y140.379 E10.0147
G1 X175.786 Y141.448 E10.03097
G1 X174.796 Y142.603 E10.05005
G1 X173.681 Y143.641 E10.06915
G1 X172.366 Y144.616 E10.08968
G1 X171.504 Y145.13 E10.10226
G1 X169.808 Y145.911 E10.12568
G1 X168.943 Y146.205 E10.13714
G1 X166.941 Y146.652 E10.16286
G1 X166.047 Y146.752 E10.17414
G1 X163.95 Y146.751 E10.20044
G1 X162.968 Y146.636 E10.21284
G1 X161.019 Y146.188 E10.23792
G1 X159.85 Y145.774 E10.25347
G1 X158.626 Y145.2 E10.27042
G1 X157.43 Y144.479 E10.28793
G1 X156.108 Y143.465 E10.30883
G1 X155.028 Y142.419 E10.32768
G1 X154.144 Y141.36 E10.34498
G1 X153.476 Y140.37 E10.35996
G1 X144.573 Y140.307 E10.47161
G1 X143.658 Y140.139 E10.48327
G1 X142.03 Y139.642 E10.50462
G1 X140.289 Y138.635 E10.52984
G1 X138.515 Y137.043 E10.55973
G1 X137.29 Y134.917 E10.5905
G1 X136.807 Y133.318 E10.61145
G1 X136.574 Y131.777 E10.63099
G1 X136.554 Y123.865 E10.73021
G1 X137.018 Y122.183 E10.75209
G1 X138.253 Y120.569 E10.77758
G1 X139.086 Y120.022 E10.79008
G1 X138.043 Y119.222 E10.80656
G1 X136.961 Y117.568 E10.83135
G1 X136.554 Y115.797 E10.85413
G1 X136.626 Y107.637 E10.95647
G1 X136.797 Y106.714 E10.96824
G1 X137.293 Y105.091 E10.98952
G1 X138.297 Y103.356 E11.01466
G1 X139.885 Y101.585 E11.04449
G1 X142.026 Y100.358 E11.07543
G1 X143.903 Y99.806 E11.09997
G1 X144.818 Y99.668 E11.11157
G1 X153.465 Y99.628 E11.22001
G1 X154.099 Y98.701 E11.2341
G1 X155.287 Y97.303 E11.2571
G1 X156.067 Y96.565 E11.27057
G1 X157.633 Y95.383 E11.29517
G1 X158.495 Y94.869 E11.30776
G1 X160.191 Y94.088 E11.33117
G1 X161.056 Y93.794 E11.34263
G1 X163.058 Y93.347 E11.36835
G1 X163.952 Y93.247 E11.37963
G1 X165.378 Y93.219 E11.39752
G1 X167.127 Y93.384 E11.41955
G1 X168.883 Y93.782 E11.44213
G1 X170.288 Y94.28 E11.46082
G1 X171.143 Y94.678 E11.47265
G1 X172.767 Y95.662 E11.49646
G1 X174.036 Y96.661 E11.51672
G1 X174.866 Y97.468 E11.53123
G1 X176.001 Y98.842 E11.55358
G1 X176.517 Y99.63 E11.56539
G1 X185.153 Y99.67 E11.67369
G1 X186.685 Y99.949 E11.69322
G1 X188.031 Y100.382 E11.71095
G1 X189.668 Y101.326 E11.73465
G1 X191.118 Y102.622 E11.75904
G1 X192.246 Y104.193 E11.78329
G1 X193.017 Y105.908 E11.80687
G1 X193.445 Y107.938 E11.83289
G1 X193.373 Y132.36 E12.13915
G1 X193.204 Y133.281 E12.15089
G1 X192.7 Y134.935 E12.17258
G1 X191.484 Y137.043 E12.2031
G0 F9000 X191.17 Y136.787
G1 F2700 X189.472 Y138.311 E12.23171
G1 X187.817 Y139.268 E12.25568
G1 X186.418 Y139.706 E12.27407
G1 X184.734 Y139.965 E12.29543
G1 X176.31 Y139.979 E12.40107
G1 X175.456 Y141.221 E12.41997
G1 X174.523 Y142.31 E12.43796
G1 X173.408 Y143.348 E12.45706
G1 X172.161 Y144.272 E12.47652
G1 X171.299 Y144.786 E12.48911
G1 X169.679 Y145.532 E12.51148
G1 X168.814 Y145.826 E12.52293
G1 X166.897 Y146.254 E12.54756
G1 X166.003 Y146.354 E12.55884
G1 X163.996 Y146.354 E12.58401
G1 X163.057 Y146.246 E12.59587
G1 X161.153 Y145.811 E12.62036
G1 X159.984 Y145.397 E12.63591
G1 X158.833 Y144.857 E12.65185
G1 X157.637 Y144.136 E12.66937
G1 X156.352 Y143.148 E12.68969
G1 X155.335 Y142.162 E12.70746
G1 X154.476 Y141.136 E12.72424
G1 X153.69 Y139.971 E12.74186
G1 X144.644 Y139.913 E12.8553
G1 X143.775 Y139.756 E12.86638
G1 X142.187 Y139.271 E12.8872
G1 X140.527 Y138.311 E12.91125
G1 X138.831 Y136.789 E12.93982
G1 X137.659 Y134.756 E12.96925
G1 X137.203 Y133.258 E12.98889
G1 X136.97 Y131.717 E13.00843
G1 X136.954 Y123.92 E13.10621
G1 X137.383 Y122.364 E13.12645
G1 X138.53 Y120.866 E13.15011
G1 X139.776 Y120.047 E13.16881
G1 X138.342 Y118.948 E13.19147
G1 X137.335 Y117.409 E13.21453
G1 X136.954 Y115.752 E13.23585
G1 X137.02 Y107.709 E13.33672
G1 X137.18 Y106.831 E13.34791
G1 X137.664 Y105.248 E13.36867
G1 X138.621 Y103.594 E13.39263
G1 X140.14 Y101.9 E13.42116
G1 X142.182 Y100.73 E13.45068
G1 X143.963 Y100.202 E13.47397
G1 X144.878 Y100.064 E13.48558
G1 X153.677 Y100.027 E13.59592
G1 X154.404 Y98.96 E13.61211
G1 X155.562 Y97.594 E13.63457
G1 X156.342 Y96.856 E13.64803
G1 X157.838 Y95.727 E13.67154
G1 X158.7 Y95.213 E13.68412
G1 X160.32 Y94.467 E13.70649
G1 X161.185 Y94.173 E13.71795
G1 X163.102 Y93.745 E13.74258
G1 X163.996 Y93.645 E13.75386
G1 X165.385 Y93.619 E13.77128
G1 X167.039 Y93.774 E13.79211
G1 X168.75 Y94.159 E13.81411
G1 X170.119 Y94.643 E13.83232
G1 X170.974 Y95.041 E13.84414
G1 X172.52 Y95.977 E13.86681
G1 X173.757 Y96.948 E13.88653
G1 X174.587 Y97.755 E13.90104
G1 X175.666 Y99.061 E13.92229
G1 X176.3 Y100.029 E13.9368
G1 X185.151 Y100.07 E14.0478
G1 X186.563 Y100.33 E14.0658
G1 X187.866 Y100.749 E14.08296
G1 X189.434 Y101.653 E14.10566
G1 X190.819 Y102.892 E14.12897
G1 X191.897 Y104.393 E14.15214
G1 X192.635 Y106.035 E14.17472
G1 X193.045 Y107.978 E14.19962
G1 X192.979 Y132.289 E14.50449
G1 X192.821 Y133.164 E14.51564
G1 X192.329 Y134.778 E14.5368
G1 X191.17 Y136.787 E14.56588
G0 F9000 X190.854 Y136.533
G1 F2700 X189.234 Y137.987 E14.59318
G1 X187.657 Y138.899 E14.61603
G1 X186.299 Y139.324 E14.63387
G1 X184.733 Y139.565 E14.65374
G1 X176.056 Y139.579 E14.76255
G1 X175.878 Y139.9 E14.76716
G1 X175.126 Y140.994 E14.7838
G1 X174.25 Y142.018 E14.8007
G1 X173.17 Y143.027 E14.81924
G1 X171.956 Y143.928 E14.8382
G1 X171.094 Y144.442 E14.85078
G1 X169.55 Y145.153 E14.8721
