;START_OF_HEADER
;HEADER_VERSION:0.1
;FLAVOR:Griffin
;GENERATOR.NAME:Cura_SteamEngine
;GENERATOR.VERSION:5.6.0
;GENERATOR.BUILD_DATE:2023-11-28
;TARGET_MACHINE.NAME:Ultimaker S5
;EXTRUDER_TRAIN.0.INITIAL_TEMPERATURE:205
;EXTRUDER_TRAIN.0.MATERIAL.VOLUME_USED:5382
;EXTRUDER_TRAIN.0.MATERIAL.GUID:44a029e6-e31b-4c9e-a12f-9282e29a92ff
;EXTRUDER_TRAIN.0.NOZZLE.DIAMETER:0.4
;EXTRUDER_TRAIN.0.NOZZLE.NAME:AA 0.4
;BUILD_PLATE.INITIAL_TEMPERATURE:60
;BUILD_VOLUME.TEMPERATURE:28
;PRINT.TIME:2915
;PRINT.GROUPS:1
;PRINT.SIZE.MIN.X:128.959
;PRINT.SIZE.MIN.Y:90.663
;PRINT.SIZE.MIN.Z:0.2
;PRINT.SIZE.MAX.X:202.414
;PRINT.SIZE.MAX.Y:149.3
;PRINT.SIZE.MAX.Z:12
;SLICE_UUID:7723ca5d-899a-42b7-bc44-b0a34530894a
;END_OF_HEADER
;Generated with Cura_SteamEngine 5.6.0
T0
M82 ;absolute extrusion mode

G92 E0
M190 S60
M109 S205
G280 S1
G0 Z20.001
G1 F2700 E-6.5
;LAYER_COUNT:60
;LAYER:0
M106 S255
M204 S1500
M205 X30 Y30
G1 F600 Z2.2
G0 F9000 X200.4 Y129.905 Z2.2
;TYPE:SKIRT
G1 F600 Z0.2
G1 F2700 E0
G1 X197.98 Y132.325 E0.04292
G1 X196.128 Y133.46 E0.07016
G1 X192.85 Y134.37 E0.11282
G1 X191.441 Y134.348 E0.13049
G1 X191.222 Y134.958 E0.13862
G1 X189.691 Y136.955 E0.17017
G1 X187.883 Y138.135 E0.19725
G1 X187.919 Y139.976 E0.22034
G1 X187.094 Y142.937 E0.25889
G1 X186.078 Y144.763 E0.28509
G1 X183.653 Y147.188 E0.3281
G1 X181.827 Y148.311 E0.35498
G1 X178.416 Y149.258 E0.39937
G1 X176.08 Y149.3 E0.42867
G1 X172.457 Y148.238 E0.47602
G1 X170.355 Y146.902 E0.50725
G1 X169.717 Y145.837 E0.52282
G1 X169.238 Y146.046 E0.52937
G1 X166.475 Y146.652 E0.56485
G1 X163.524 Y146.652 E0.60185
G1 X160.755 Y146.046 E0.6374
G1 X160.248 Y145.822 E0.64435
G1 X158.937 Y147.211 E0.6683
G1 X157.113 Y148.312 E0.69502
G1 X153.747 Y149.258 E0.73887
G1 X151.402 Y149.3 E0.76828
G1 X148.026 Y148.318 E0.81237
G1 X146.192 Y147.234 E0.83909
G1 X143.749 Y144.791 E0.88241
G1 X142.664 Y142.955 E0.90916
G1 X141.773 Y139.911 E0.94893
G1 X141.773 Y138.005 E0.97283
G1 X140.801 Y137.259 E0.9882
G1 X140.324 Y137.486 E0.99482
G1 X137.766 Y137.91 E1.02734
G1 X135.129 Y137.282 E1.06133
G1 X133.437 Y136.198 E1.08653
G1 X131.027 Y133.788 E1.12927
G1 X129.942 Y131.95 E1.15604
G1 X129.006 Y128.753 E1.19781
G1 X128.959 Y126.355 E1.22789
G1 X130.014 Y122.733 E1.2752
G1 X130.723 Y121.489 E1.29315
G1 X132.2 Y119.933 E1.32006
G1 X131.027 Y118.76 E1.34086
G1 X129.942 Y116.922 E1.36763
G1 X129.006 Y113.725 E1.4094
G1 X128.959 Y111.327 E1.43948
G1 X130.014 Y107.705 E1.48679
G1 X130.726 Y106.454 E1.50484
G1 X133.108 Y103.934 E1.54832
G1 X134.799 Y102.763 E1.57412
G1 X137.165 Y102.076 E1.60501
G1 X139.744 Y102.219 E1.6374
G1 X140.821 Y102.706 E1.65223
G1 X141.815 Y102.058 E1.66711
G1 X141.787 Y99.944 E1.69362
G1 X142.676 Y96.901 E1.73338
G1 X143.299 Y95.681 E1.75055
G1 X145.915 Y92.917 E1.79828
G1 X147.855 Y91.693 E1.82704
G1 X151.266 Y90.726 E1.87151
G1 X153.457 Y90.663 E1.89899
G1 X156.892 Y91.629 E1.94374
G1 X158.914 Y92.724 E1.97258
G1 X160.148 Y94.221 E1.9969
G1 X160.751 Y93.954 E2.00517
G1 X163.524 Y93.347 E2.04077
G1 X166.475 Y93.347 E2.07778
G1 X169.294 Y93.964 E2.11397
G1 X170.543 Y94.536 E2.13119
G1 X171.39 Y93.654 E2.14653
G1 X173.641 Y92.172 E2.18033
G1 X176.581 Y91.835 E2.21744
G1 X177.347 Y91.995 E2.22725
G1 X178.227 Y91.803 E2.23854
G1 X182.725 Y93.058 E2.29711
G1 X184.597 Y94.315 E2.32538
G1 X187.008 Y96.868 E2.36942
G1 X188.085 Y98.888 E2.39813
G1 X188.346 Y101.256 E2.428
G1 X188.221 Y101.989 E2.43733
G1 X189.83 Y103.209 E2.46265
G1 X190.063 Y103.494 E2.46726
G1 X191.192 Y103.128 E2.48215
G1 X193.667 Y103.379 E2.51334
G1 X196.263 Y104.389 E2.54828
G1 X199.168 Y107.459 E2.60128
G1 X199.967 Y108.746 E2.62028
G1 X200.95 Y112.135 E2.66453
G1 X201.088 Y114.455 E2.69367
G1 X200.287 Y117.307 E2.73082
G1 X200.559 Y117.609 E2.73592
G1 X201.297 Y118.828 E2.75379
G1 X202.276 Y122.204 E2.79787
G1 X202.414 Y124.52 E2.82696
G1 X201.416 Y128.077 E2.87329
G1 X200.4 Y129.905 E2.89952
G0 F9000 X200.078 Y129.661
G1 F2700 X197.73 Y132.009 E2.94116
G1 X195.966 Y133.09 E2.9671
G1 X192.8 Y133.969 E3.00831
G1 X191.15 Y133.943 E3.029
G1 X190.905 Y134.715 E3.03916
G1 X189.417 Y136.656 E3.06983
G1 X187.479 Y137.921 E3.09885
G1 X187.518 Y139.927 E3.12401
G1 X186.722 Y142.782 E3.16118
G1 X185.756 Y144.519 E3.18611
G1 X183.404 Y146.871 E3.22782
G1 X181.663 Y147.942 E3.25345
G1 X178.36 Y148.859 E3.29644
G1 X176.135 Y148.899 E3.32435
G1 X172.625 Y147.87 E3.37021
G1 X170.649 Y146.614 E3.39958
G1 X169.877 Y145.325 E3.41842
G1 X169.152 Y145.655 E3.42841
G1 X166.43 Y146.252 E3.46335
G1 X163.569 Y146.252 E3.49923
G1 X160.841 Y145.655 E3.53425
G1 X160.153 Y145.339 E3.54375
G1 X158.684 Y146.896 E3.57059
G1 X156.95 Y147.942 E3.59599
G1 X153.689 Y148.859 E3.63847
G1 X151.455 Y148.899 E3.66649
G1 X148.186 Y147.948 E3.70918
G1 X146.44 Y146.916 E3.73461
G1 X144.067 Y144.543 E3.7767
G1 X143.034 Y142.795 E3.80216
G1 X142.173 Y139.854 E3.84059
G1 X142.17 Y138.036 E3.86339
G1 X142.211 Y137.837 E3.86594
G1 X140.841 Y136.786 E3.88759
G1 X140.259 Y137.091 E3.89583
G1 X137.779 Y137.502 E3.92735
G1 X135.289 Y136.909 E3.95945
G1 X133.689 Y135.884 E3.98328
G1 X131.344 Y133.539 E4.02487
G1 X130.313 Y131.792 E4.05031
G1 X129.405 Y128.692 E4.09082
G1 X129.36 Y126.408 E4.11946
G1 X130.384 Y122.892 E4.16539
G1 X131.048 Y121.727 E4.1822
G1 X132.758 Y119.925 E4.21336
G1 X131.344 Y118.511 E4.23843
G1 X130.313 Y116.764 E4.26387
G1 X129.405 Y113.664 E4.30438
G1 X129.36 Y111.38 E4.33303
G1 X130.384 Y107.864 E4.37895
G1 X131.05 Y106.694 E4.39583
G1 X133.371 Y104.239 E4.4382
G1 X134.975 Y103.128 E4.46267
G1 X137.211 Y102.479 E4.49187
G1 X139.647 Y102.614 E4.52246
G1 X140.857 Y103.161 E4.53912
G1 X142.218 Y102.273 E4.55949
G1 X142.188 Y99.999 E4.58801
G1 X143.05 Y97.048 E4.62657
G1 X143.628 Y95.916 E4.64251
G1 X146.172 Y93.228 E4.68892
G1 X148.019 Y92.062 E4.71631
G1 X151.327 Y91.125 E4.75943
G1 X153.409 Y91.065 E4.78555
G1 X156.74 Y92.002 E4.82894
G1 X158.655 Y93.039 E4.85625
G1 X160.035 Y94.713 E4.88345
G1 X160.837 Y94.345 E4.89452
G1 X163.569 Y93.747 E4.92959
G1 X166.43 Y93.747 E4.96547
G1 X169.166 Y94.346 E5.00059
G1 X170.678 Y95.039 E5.02145
G1 X170.809 Y94.837 E5.02447
G1 X171.649 Y93.962 E5.03968
G1 X173.782 Y92.558 E5.0717
G1 X176.563 Y92.239 E5.10681
G1 X177.35 Y92.404 E5.11689
G1 X178.216 Y92.215 E5.12801
G1 X182.555 Y93.426 E5.1845
G1 X184.335 Y94.621 E5.21138
G1 X186.681 Y97.105 E5.25423
G1 X187.695 Y99.007 E5.28126
G1 X187.948 Y101.3 E5.31019
G1 X187.78 Y102.157 E5.32114
G1 X189.588 Y103.528 E5.3496
G1 X189.914 Y103.962 E5.3564
G1 X191.234 Y103.534 E5.3738
G1 X193.572 Y103.772 E5.40328
G1 X196.034 Y104.729 E5.4364
G1 X198.85 Y107.705 E5.48778
G1 X199.599 Y108.912 E5.50559
G1 X200.554 Y112.203 E5.54857
G1 X200.685 Y114.411 E5.5763
G1 X199.841 Y117.418 E5.61547
G1 X200.217 Y117.816 E5.62234
G1 X200.928 Y118.99 E5.63955
G1 X201.88 Y122.272 E5.6824
G1 X202.011 Y124.476 E5.71009
G1 X201.044 Y127.923 E5.75499
G1 X200.078 Y129.661 E5.77992
G0 F9000 X199.756 Y129.417
G1 F2700 X197.48 Y131.693 E5.82029
G1 X195.804 Y132.72 E5.84494
G1 X192.75 Y133.568 E5.88468
G1 X190.846 Y133.538 E5.90856
G1 X190.588 Y134.472 E5.92071
G1 X189.143 Y136.357 E5.9505
G1 X187.378 Y137.509 E5.97693
G1 X187.073 Y137.612 E5.98097
G1 X187.117 Y139.878 E6.00939
G1 X186.35 Y142.627 E6.04518
G1 X185.434 Y144.275 E6.06882
G1 X183.155 Y146.554 E6.10924
G1 X181.499 Y147.573 E6.13362
G1 X178.304 Y148.46 E6.17521
G1 X176.189 Y148.498 E6.20173
G1 X172.794 Y147.503 E6.2461
G1 X170.942 Y146.326 E6.27362
G1 X170.036 Y144.813 E6.29573
G1 X169.026 Y145.273 E6.30965
G1 X166.385 Y145.852 E6.34356
G1 X163.613 Y145.852 E6.37832
G1 X160.966 Y145.273 E6.4123
G1 X159.956 Y144.809 E6.42623
G1 X159.785 Y145.146 E6.43097
G1 X158.429 Y146.583 E6.45575
G1 X156.79 Y147.572 E6.47976
G1 X153.631 Y148.46 E6.52091
G1 X151.508 Y148.498 E6.54753
G1 X148.346 Y147.578 E6.58883
G1 X146.688 Y146.598 E6.61298
G1 X144.385 Y144.295 E6.65383
G1 X143.404 Y142.635 E6.67801
G1 X142.573 Y139.796 E6.7151
G1 X142.57 Y138.035 E6.73719
G1 X142.699 Y137.569 E6.74325
G1 X142.332 Y137.425 E6.74819
G1 X140.873 Y136.307 E6.77124
G1 X140.194 Y136.696 E6.78106
G1 X137.792 Y137.094 E6.81159
G1 X135.449 Y136.536 E6.84179
G1 X133.941 Y135.57 E6.86425
G1 X131.663 Y133.292 E6.90465
G1 X130.683 Y131.631 E6.92884
G1 X129.804 Y128.631 E6.96804
G1 X129.761 Y126.461 E6.99526
G1 X130.754 Y123.051 E7.0398
G1 X131.373 Y121.965 E7.05547
G1 X133.316 Y119.917 E7.09087
G1 X131.663 Y118.264 E7.12019
G1 X130.683 Y116.603 E7.14438
G1 X129.804 Y113.603 E7.18358
G1 X129.761 Y111.433 E7.2108
G1 X130.754 Y108.023 E7.25533
G1 X131.374 Y106.934 E7.27105
G1 X133.634 Y104.544 E7.3123
G1 X135.15 Y103.494 E7.33542
G1 X137.258 Y102.882 E7.36295
G1 X139.55 Y103.009 E7.39174
G1 X140.893 Y103.616 E7.41022
G1 X142.621 Y102.488 E7.4361
G1 X142.589 Y100.054 E7.46662
G1 X143.424 Y97.195 E7.50397
G1 X143.957 Y96.151 E7.51867
G1 X146.431 Y93.537 E7.56381
G1 X148.182 Y92.432 E7.58977
G1 X151.388 Y91.524 E7.63156
G1 X153.361 Y91.467 E7.65631
G1 X156.586 Y92.374 E7.69832
G1 X158.395 Y93.354 E7.72412
G1 X159.922 Y95.205 E7.75422
G1 X160.965 Y94.727 E7.7686
G1 X163.614 Y94.147 E7.80261
G1 X166.386 Y94.147 E7.83737
G1 X169.037 Y94.727 E7.8714
G1 X170.839 Y95.554 E7.89627
G1 X171.098 Y95.114 E7.90267
G1 X171.908 Y94.27 E7.91734
G1 X173.923 Y92.944 E7.94759
G1 X176.545 Y92.643 E7.98069
G1 X177.353 Y92.813 E7.99104
G1 X178.205 Y92.627 E8.00198
G1 X182.385 Y93.793 E8.0564
G1 X184.073 Y94.927 E8.0819
G1 X186.354 Y97.342 E8.12356
G1 X187.305 Y99.126 E8.14891
G1 X187.543 Y101.283 E8.17612
G1 X187.317 Y102.437 E8.19087
G1 X187.669 Y102.575 E8.19561
G1 X189.346 Y103.847 E8.222
G1 X189.756 Y104.433 E8.23097
G1 X191.276 Y103.94 E8.25101
G1 X193.477 Y104.164 E8.27876
G1 X195.805 Y105.069 E8.31008
G1 X198.532 Y107.951 E8.35983
G1 X199.23 Y109.077 E8.37645
G1 X200.158 Y112.273 E8.41818
G1 X200.282 Y114.367 E8.44449
G1 X199.395 Y117.529 E8.48567
G1 X199.899 Y118.062 E8.49487
G1 X200.559 Y119.152 E8.51085
G1 X201.484 Y122.34 E8.55248
G1 X201.608 Y124.432 E8.57876
G1 X200.672 Y127.769 E8.62222
G1 X199.756 Y129.417 E8.64586
G0 F9000 X199.434 Y129.173
G1 F2700 X197.23 Y131.377 E8.68495
G1 X195.642 Y132.35 E8.70831
G1 X192.7 Y133.167 E8.7466
G1 X191.034 Y133.141 E8.76749
G1 X190.579 Y132.997 E8.77348
G1 X190.222 Y134.293 E8.79033
G1 X188.869 Y136.058 E8.81822
G1 X187.159 Y137.174 E8.84383
G1 X186.59 Y137.332 E8.85123
G1 X186.673 Y137.596 E8.85471
G1 X186.716 Y139.828 E8.8827
G1 X185.978 Y142.473 E8.91714
G1 X185.112 Y144.031 E8.93949
G1 X182.904 Y146.239 E8.97865
G1 X181.336 Y147.203 E9.00173
G1 X178.248 Y148.061 E9.04192
G1 X176.244 Y148.097 E9.06706
G1 X172.962 Y147.135 E9.10995
G1 X171.236 Y146.038 E9.13559
G1 X170.195 Y144.3 E9.161
G1 X168.9 Y144.891 E9.17885
G1 X166.34 Y145.452 E9.21171
G1 X163.658 Y145.452 E9.24535
G1 X161.09 Y144.89 E9.27831
G1 X159.751 Y144.275 E9.29679
G1 X159.494 Y144.871 E9.30493
G1 X158.174 Y146.27 E9.32905
G1 X156.63 Y147.202 E9.35167
G1 X153.573 Y148.061 E9.39149
G1 X151.561 Y148.097 E9.41672
G1 X148.506 Y147.208 E9.45662
G1 X146.936 Y146.28 E9.47949
G1 X144.703 Y144.047 E9.5191
G1 X143.774 Y142.475 E9.54199
G1 X142.973 Y139.738 E9.57776
G1 X142.97 Y138.034 E9.59913
G1 X143.202 Y137.312 E9.60864
G1 X142.575 Y137.108 E9.6169
G1 X140.905 Y135.828 E9.64329
G1 X140.058 Y136.313 E9.65553
G1 X137.805 Y136.686 E9.68417
G1 X135.609 Y136.163 E9.71248
G1 X134.193 Y135.256 E9.73357
G1 X131.98 Y133.043 E9.77281
G1 X131.053 Y131.473 E9.79568
G1 X130.203 Y128.57 E9.83361
G1 X130.162 Y126.514 E9.8594
G1 X131.125 Y123.206 E9.9026
G1 X131.696 Y122.205 E9.91706
G1 X133.874 Y119.909 E9.95674
G1 X131.98 Y118.015 E9.99033
G1 X131.053 Y116.445 E10.0132
G1 X130.203 Y113.542 E10.05113
G1 X130.162 Y111.486 E10.07692
G1 X131.125 Y108.178 E10.12012
G1 X131.696 Y107.177 E10.13457
G1 X133.897 Y104.849 E10.17475
G1 X135.326 Y103.859 E10.19655
G1 X137.304 Y103.285 E10.22238
G1 X139.453 Y103.404 E10.24937
G1 X141.007 Y104.107 E10.27076
G1 X141.215 Y103.884 E10.27458
G1 X142.779 Y102.863 E10.298
G1 X143.144 Y102.745 E10.30282
G1 X143.02 Y102.391 E10.30752
G1 X142.99 Y100.109 E10.33614
G1 X143.798 Y97.342 E10.37229
G1 X144.286 Y96.386 E10.38575
G1 X146.69 Y93.846 E10.4296
G1 X148.345 Y92.802 E10.45414
G1 X151.449 Y91.923 E10.4946
G1 X153.313 Y91.869 E10.51798
G1 X156.434 Y92.747 E10.55864
G1 X158.135 Y93.668 E10.5829
G1 X159.647 Y95.501 E10.6127
G1 X159.75 Y95.725 E10.61579
G1 X161.094 Y95.108 E10.63433
G1 X163.658 Y94.547 E10.66725
G1 X166.341 Y94.547 E10.70089
G1 X168.909 Y95.109 E10.73386
G1 X171.009 Y96.072 E10.76283
G1 X171.387 Y95.391 E10.7726
G1 X172.167 Y94.578 E10.78673
G1 X174.064 Y93.33 E10.8152
G1 X176.591 Y93.04 E10.8471
G1 X177.349 Y93.224 E10.85688
G1 X178.194 Y93.039 E10.86773
G1 X182.215 Y94.161 E10.92008
G1 X183.811 Y95.233 E10.94419
G1 X186.027 Y97.579 E10.98466
G1 X186.915 Y99.245 E11.00834
G1 X187.138 Y101.266 E11.03383
G1 X186.856 Y102.707 E11.05225
G1 X187.427 Y102.894 E11.05978
G1 X189.104 Y104.166 E11.08618
G1 X189.588 Y104.907 E11.09728
G1 X191.318 Y104.346 E11.12008
G1 X193.382 Y104.556 E11.1461
G1 X195.576 Y105.409 E11.17562
G1 X198.214 Y108.197 E11.22375
G1 X198.861 Y109.242 E11.23917
G1 X199.762 Y112.343 E11.27966
G1 X199.879 Y114.323 E11.30453
G1 X198.949 Y117.64 E11.34773
G1 X199.581 Y118.308 E11.35927
G1 X200.19 Y119.314 E11.37401
G1 X201.088 Y122.408 E11.41442
G1 X201.205 Y124.388 E11.43929
G1 X200.3 Y127.615 E11.48132
G1 X199.434 Y129.173 E11.50367
G0 F9000 X199.112 Y128.929
G1 F2700 X196.98 Y131.061 E11.54148
G1 X195.48 Y131.98 E11.56354
G1 X192.65 Y132.766 E11.60037
G1 X191.04 Y132.741 E11.62057
G1 X190.308 Y132.471 E11.63035
G1 X189.856 Y134.114 E11.65172
G1 X188.595 Y135.759 E11.67771
G1 X186.94 Y136.839 E11.7025
G1 X186.029 Y137.053 E11.71423
G1 X186.273 Y137.604 E11.72179
G1 X186.315 Y139.778 E11.74906
G1 X185.606 Y142.319 E11.78214
G1 X184.79 Y143.787 E11.8032
G1 X182.655 Y145.922 E11.84106
G1 X181.172 Y146.834 E11.8629
G1 X178.192 Y147.662 E11.90168
G1 X176.299 Y147.696 E11.92542
G1 X173.13 Y146.767 E11.96684
G1 X171.53 Y145.75 E11.99061
G1 X170.354 Y143.787 E12.01931
G1 X168.774 Y144.509 E12.04109
G1 X166.295 Y145.052 E12.07292
G1 X163.703 Y145.052 E12.10542
G1 X161.218 Y144.508 E12.13732
G1 X159.528 Y143.732 E12.16064
G1 X159.203 Y144.597 E12.17223
G1 X157.921 Y145.956 E12.19566
G1 X156.47 Y146.832 E12.21692
G1 X153.515 Y147.662 E12.25541
G1 X151.614 Y147.696 E12.27925
G1 X148.664 Y146.837 E12.31778
G1 X147.185 Y145.963 E12.33932
G1 X145.021 Y143.799 E12.3777
G1 X144.144 Y142.315 E12.39932
G1 X143.373 Y139.68 E12.43375
G1 X143.37 Y138.033 E12.4544
G1 X143.724 Y137.04 E12.46762
G1 X142.818 Y136.791 E12.4794
G1 X141.286 Y135.617 E12.50361
G1 X141.036 Y135.294 E12.50873
G1 X139.924 Y135.929 E12.52479
G1 X137.818 Y136.278 E12.55156
G1 X135.769 Y135.79 E12.57797
G1 X134.445 Y134.942 E12.59769
G1 X132.297 Y132.794 E12.63578
G1 X131.423 Y131.315 E12.65733
G1 X130.602 Y128.509 E12.69399
G1 X130.563 Y126.567 E12.71835
G1 X131.496 Y123.361 E12.76022
G1 X132.017 Y122.448 E12.7734
G1 X134.132 Y120.212 E12.812
G1 X134.487 Y119.956 E12.81749
G1 X132.297 Y117.766 E12.85633
G1 X131.423 Y116.287 E12.87787
G1 X130.602 Y113.481 E12.91454
G1 X130.563 Y111.539 E12.93889
G1 X131.496 Y108.333 E12.98077
G1 X132.017 Y107.42 E12.99395
G1 X134.16 Y105.154 E13.03306
G1 X135.501 Y104.225 E13.05352
G1 X137.351 Y103.688 E13.07768
G1 X139.356 Y103.799 E13.10286
G1 X141.119 Y104.597 E13.12713
G1 X141.434 Y104.219 E13.1333
G1 X142.998 Y103.198 E13.15672
G1 X143.702 Y103.009 E13.16586
G1 X143.42 Y102.386 E13.17444
G1 X143.391 Y100.164 E13.2023
G1 X144.172 Y97.489 E13.23725
G1 X144.615 Y96.621 E13.24947
G1 X146.947 Y94.157 E13.29201
