;START_OF_HEADER
;HEADER_VERSION:0.1
;FLAVOR:Griffin
;GENERATOR.NAME:Cura_SteamEngine
;GENERATOR.VERSION:5.6.0
;GENERATOR.BUILD_DATE:2023-11-28
;TARGET_MACHINE.NAME:Ultimaker S5
;EXTRUDER_TRAIN.0.INITIAL_TEMPERATURE:205
;EXTRUDER_TRAIN.0.MATERIAL.VOLUME_USED:9624
;EXTRUDER_TRAIN.0.MATERIAL.GUID:44a029e6-e31b-4c9e-a12f-9282e29a92ff
;EXTRUDER_TRAIN.0.NOZZLE.DIAMETER:0.4
;EXTRUDER_TRAIN.0.NOZZLE.NAME:AA 0.4
;BUILD_PLATE.INITIAL_TEMPERATURE:60
;BUILD_VOLUME.TEMPERATURE:28
;PRINT.TIME:3156
;PRINT.GROUPS:1
;PRINT.SIZE.MIN.X:103.042
;PRINT.SIZE.MIN.Y:89.704
;PRINT.SIZE.MIN.Z:0.2
;PRINT.SIZE.MAX.X:217.557
;PRINT.SIZE.MAX.Y:128.56
;PRINT.SIZE.MAX.Z:10.8
;SLICE_UUID:921494ca-88b5-4d74-8842-47e3bcbcfe9f
;END_OF_HEADER
;Generated with Cura_SteamEngine 5.6.0
T0
M82 ;absolute extrusion mode

G92 E0
M190 S60
M109 S205
G280 S1
G0 Z20.001
G1 F2700 E-6.5
;LAYER_COUNT:55
;LAYER:0
M106 S255
M204 S1500
M205 X30 Y30
G1 F600 Z2.2
G0 F9000 X215.585 Y118.498 Z2.2
;TYPE:SKIRT
G1 F600 Z0.2
G1 F2700 E0
G1 X213.325 Y120.758 E0.04008
G1 X211.579 Y121.904 E0.06627
G1 X208.235 Y122.84 E0.10982
G1 X205.994 Y122.943 E0.13795
G1 X204.982 Y122.648 E0.15117
G1 X204.274 Y123.083 E0.16159
G1 X200.87 Y124.027 E0.20589
G1 X198.551 Y124.069 E0.23497
G1 X196.36 Y123.433 E0.26358
G1 X193.714 Y124.161 E0.298
G1 X193.523 Y124.19 E0.30042
G1 X192.349 Y124.886 E0.31754
G1 X189.537 Y125.658 E0.35411
G1 X188.751 Y126.444 E0.36805
G1 X186.911 Y127.576 E0.39514
G1 X183.521 Y128.518 E0.43926
G1 X181.183 Y128.56 E0.46858
G1 X179 Y127.924 E0.4971
G1 X177.007 Y128.481 E0.52305
G1 X174.66 Y128.523 E0.55248
G1 X171.464 Y127.588 E0.59424
G1 X170.137 Y127.962 E0.61153
G1 X167.787 Y128.004 E0.64101
G1 X164.607 Y127.08 E0.68254
G1 X164.156 Y126.85 E0.68888
G1 X161.528 Y127.586 E0.72311
G1 X159.272 Y127.689 E0.75143
G1 X157.596 Y127.193 E0.77335
G1 X156.565 Y127.483 E0.78678
G1 X154.214 Y127.525 E0.81627
G1 X153.026 Y127.18 E0.83178
G1 X150.985 Y127.749 E0.85835
G1 X148.636 Y127.791 E0.88781
G1 X146.381 Y127.135 E0.91726
G1 X144.244 Y127.732 E0.94509
G1 X141.892 Y127.774 E0.97459
G1 X140.427 Y127.347 E0.99372
G1 X140.145 Y127.473 E0.9976
G1 X137.077 Y128.327 E1.03753
G1 X134.755 Y128.369 E1.06666
G1 X131.479 Y127.417 E1.10944
G1 X130.894 Y127.097 E1.1178
G1 X129.998 Y127.345 E1.12946
G1 X127.666 Y127.387 E1.15871
G1 X124.29 Y126.405 E1.2028
G1 X122.456 Y125.321 E1.22951
G1 X120.821 Y123.686 E1.25851
G1 X118.91 Y124.217 E1.28338
G1 X116.681 Y124.32 E1.31137
G1 X113.168 Y123.295 E1.35726
G1 X111.334 Y122.211 E1.38397
G1 X108.895 Y119.772 E1.42723
G1 X107.945 Y118.161 E1.45068
G1 X107.79 Y117.748 E1.45621
G1 X107.17 Y117.371 E1.46531
G1 X105.014 Y115.215 E1.50355
G1 X103.93 Y113.381 E1.53027
G1 X103.089 Y110.501 E1.56789
G1 X103.042 Y108.114 E1.59783
G1 X103.746 Y105.686 E1.62953
G1 X103.717 Y105.511 E1.63176
G1 X103.594 Y103.39 E1.6584
G1 X104.399 Y100.642 E1.69431
G1 X104.979 Y99.587 E1.70941
G1 X106.149 Y98.368 E1.73059
G1 X106.647 Y97.588 E1.7422
G1 X108.131 Y96.257 E1.7672
G1 X108.934 Y95.84 E1.77855
G1 X109.568 Y95.368 E1.78846
G1 X110.203 Y95.048 E1.79737
G1 X110.962 Y94.506 E1.80907
G1 X113.367 Y93.606 E1.84127
G1 X114.8 Y93.619 E1.85924
G1 X115.565 Y93.41 E1.86919
G1 X117.692 Y93.426 E1.89586
G1 X118.697 Y93.401 E1.90847
G1 X119.332 Y93.434 E1.91644
G1 X120.447 Y93.409 E1.93043
G1 X121.105 Y93.431 E1.93869
G1 X122.132 Y93.401 E1.95157
G1 X122.631 Y93.465 E1.95788
G1 X123.786 Y93.354 E1.97243
G1 X125.287 Y91.569 E2.00168
G1 X126.965 Y90.547 E2.02631
G1 X128.854 Y89.912 E2.05131
G1 X131.215 Y89.704 E2.08103
G1 X191.152 Y89.799 E2.83266
G1 X193.439 Y90.157 E2.86169
G1 X195.965 Y91.679 E2.89867
G1 X197.324 Y93.347 E2.92565
G1 X198.338 Y93.149 E2.93861
G1 X199.238 Y93.426 E2.95042
G1 X199.57 Y93.4 E2.9546
G1 X200.467 Y93.43 E2.96585
G1 X201.287 Y93.4 E2.97614
G1 X202.161 Y93.424 E2.98711
G1 X202.765 Y93.412 E2.99468
G1 X203.859 Y93.428 E3.0084
G1 X204.273 Y93.488 E3.01365
G1 X205.952 Y93.24 E3.03493
G1 X208.115 Y93.611 E3.06245
G1 X209.499 Y94.18 E3.08122
G1 X210.324 Y94.753 E3.09381
G1 X211.065 Y95.182 E3.10455
G1 X211.934 Y95.951 E3.1191
G1 X212.692 Y96.317 E3.12966
G1 X214.184 Y97.705 E3.15521
G1 X215.049 Y98.938 E3.1741
G1 X215.334 Y99.617 E3.18334
G1 X216.097 Y100.614 E3.19908
G1 X216.9 Y104.225 E3.24547
G1 X216.615 Y105.508 E3.26195
G1 X216.778 Y106.23 E3.27123
G1 X216.805 Y107.991 E3.29332
G1 X216.713 Y108.501 E3.29982
G1 X217.419 Y110.941 E3.33167
G1 X217.557 Y113.257 E3.36077
G1 X216.596 Y116.681 E3.40536
G1 X215.585 Y118.498 E3.43144
G0 F9000 X215.261 Y118.256
G1 F2700 X213.07 Y120.447 E3.4703
G1 X211.411 Y121.536 E3.49518
G1 X208.173 Y122.442 E3.53735
G1 X206.041 Y122.54 E3.56411
G1 X204.924 Y122.214 E3.5787
G1 X204.112 Y122.713 E3.59066
G1 X200.814 Y123.628 E3.63358
G1 X198.604 Y123.668 E3.6613
G1 X196.362 Y123.017 E3.69057
G1 X193.608 Y123.775 E3.72639
G1 X193.388 Y123.805 E3.72918
G1 X192.192 Y124.514 E3.74661
G1 X189.329 Y125.3 E3.78384
G1 X188.5 Y126.129 E3.79855
G1 X186.748 Y127.206 E3.82434
G1 X183.465 Y128.119 E3.86707
G1 X181.236 Y128.159 E3.89503
G1 X179.003 Y127.508 E3.92419
G1 X176.949 Y128.082 E3.95094
G1 X174.714 Y128.122 E3.97897
G1 X171.723 Y127.247 E4.01805
G1 X171.527 Y127.155 E4.02077
G1 X170.079 Y127.563 E4.03963
G1 X167.84 Y127.603 E4.06771
G1 X164.719 Y126.696 E4.10847
G1 X164.202 Y126.422 E4.11581
G1 X161.466 Y127.188 E4.15144
G1 X159.321 Y127.286 E4.17837
G1 X157.6 Y126.777 E4.20087
G1 X156.507 Y127.084 E4.21511
G1 X154.267 Y127.124 E4.2432
G1 X153.028 Y126.764 E4.25938
G1 X150.928 Y127.35 E4.28673
G1 X148.689 Y127.39 E4.31481
G1 X146.383 Y126.719 E4.34493
G1 X144.186 Y127.333 E4.37353
G1 X141.945 Y127.373 E4.40164
G1 X140.394 Y126.921 E4.4219
G1 X140.038 Y127.088 E4.42683
G1 X137.021 Y127.928 E4.4661
G1 X134.808 Y127.968 E4.49386
G1 X131.591 Y127.033 E4.53587
G1 X130.948 Y126.667 E4.54515
G1 X129.942 Y126.946 E4.55824
G1 X127.719 Y126.986 E4.58612
G1 X124.45 Y126.035 E4.62882
G1 X122.704 Y125.003 E4.65425
G1 X120.939 Y123.238 E4.68555
G1 X118.85 Y123.819 E4.71274
G1 X116.728 Y123.917 E4.73938
G1 X113.328 Y122.925 E4.7838
G1 X111.582 Y121.893 E4.80923
G1 X109.214 Y119.525 E4.85123
G1 X108.29 Y117.958 E4.87404
G1 X108.117 Y117.476 E4.88046
G1 X107.453 Y117.088 E4.89011
G1 X105.332 Y114.967 E4.92772
G1 X104.3 Y113.221 E4.95316
G1 X103.488 Y110.44 E4.98949
G1 X103.443 Y108.166 E5.01801
G1 X104.157 Y105.705 E5.05015
G1 X104.116 Y105.488 E5.05291
G1 X103.997 Y103.437 E5.07868
G1 X104.771 Y100.795 E5.1132
G1 X105.303 Y99.828 E5.12704
G1 X106.463 Y98.619 E5.14805
G1 X106.954 Y97.85 E5.1595
G1 X108.361 Y96.588 E5.1832
G1 X109.148 Y96.179 E5.19432
G1 X109.748 Y95.725 E5.20376
G1 X110.411 Y95.391 E5.21307
G1 X111.15 Y94.863 E5.22446
G1 X113.438 Y94.007 E5.25509
G1 X114.853 Y94.02 E5.27284
G1 X115.619 Y93.81 E5.2828
G1 X117.076 Y93.815 E5.30107
G1 X117.422 Y93.865 E5.30545
G1 X117.744 Y93.823 E5.30952
G1 X118.706 Y93.801 E5.32159
G1 X119.144 Y93.863 E5.32714
G1 X119.385 Y93.831 E5.33019
G1 X120.395 Y93.806 E5.34286
G1 X120.852 Y93.866 E5.34864
G1 X121.117 Y93.831 E5.35199
G1 X122.144 Y93.801 E5.36487
G1 X122.623 Y93.868 E5.37094
G1 X123.987 Y93.736 E5.38812
G1 X125.551 Y91.877 E5.41859
G1 X127.137 Y90.911 E5.44188
G1 X128.937 Y90.306 E5.46569
G1 X131.214 Y90.104 E5.49436
G1 X191.09 Y90.194 E6.24522
G1 X193.299 Y90.54 E6.27326
G1 X195.699 Y91.986 E6.3084
G1 X197.165 Y93.786 E6.33751
G1 X198.318 Y93.561 E6.35225
G1 X199.197 Y93.831 E6.36378
G1 X199.556 Y93.8 E6.3683
G1 X200.468 Y93.831 E6.37974
G1 X201.276 Y93.8 E6.38988
G1 X202.158 Y93.824 E6.40094
G1 X202.76 Y93.812 E6.40849
G1 X203.801 Y93.824 E6.42155
G1 X204.274 Y93.893 E6.42754
G1 X205.949 Y93.645 E6.44878
G1 X208.003 Y93.997 E6.47491
G1 X209.305 Y94.533 E6.49257
G1 X210.108 Y95.09 E6.50482
G1 X210.829 Y95.508 E6.51528
G1 X211.709 Y96.286 E6.53001
G1 X212.464 Y96.651 E6.54052
G1 X213.881 Y97.969 E6.56479
G1 X214.697 Y99.132 E6.58261
G1 X214.984 Y99.818 E6.59193
G1 X215.726 Y100.786 E6.60723
G1 X216.491 Y104.225 E6.65141
G1 X216.205 Y105.512 E6.66794
G1 X216.378 Y106.236 E6.67727
G1 X216.405 Y107.997 E6.69936
G1 X216.302 Y108.519 E6.70603
G1 X217.023 Y111.009 E6.73854
G1 X217.154 Y113.213 E6.76623
G1 X216.225 Y116.524 E6.80935
G1 X215.261 Y118.256 E6.83421
G0 F9000 X214.94 Y118.011
G1 F2700 X212.815 Y120.136 E6.8719
G1 X211.243 Y121.168 E6.89548
G1 X208.111 Y122.044 E6.93626
G1 X206.088 Y122.137 E6.96166
G1 X204.866 Y121.78 E6.97762
G1 X203.95 Y122.343 E6.99111
G1 X200.758 Y123.229 E7.03265
G1 X198.657 Y123.267 E7.059
G1 X196.364 Y122.601 E7.08894
G1 X193.502 Y123.389 E7.12617
G1 X193.259 Y123.416 E7.12924
G1 X192.035 Y124.142 E7.14708
G1 X189.121 Y124.942 E7.18498
G1 X188.251 Y125.812 E7.20041
G1 X186.584 Y126.837 E7.22495
G1 X183.409 Y127.72 E7.26627
G1 X181.289 Y127.758 E7.29286
G1 X179.006 Y127.092 E7.32269
G1 X176.891 Y127.683 E7.35023
G1 X174.768 Y127.721 E7.37685
G1 X171.894 Y126.885 E7.41439
G1 X171.563 Y126.729 E7.41898
G1 X170.02 Y127.164 E7.43908
G1 X167.893 Y127.202 E7.46576
G1 X164.831 Y126.312 E7.50575
G1 X164.251 Y125.993 E7.51405
G1 X161.404 Y126.79 E7.55112
G1 X159.37 Y126.883 E7.57666
G1 X157.604 Y126.361 E7.59975
G1 X156.449 Y126.685 E7.61479
G1 X154.32 Y126.723 E7.6415
G1 X153.03 Y126.348 E7.65834
G1 X150.871 Y126.951 E7.68645
G1 X148.742 Y126.989 E7.71316
G1 X146.386 Y126.303 E7.74393
G1 X144.128 Y126.934 E7.77333
G1 X141.998 Y126.972 E7.80004
G1 X140.357 Y126.494 E7.82148
G1 X139.931 Y126.703 E7.82743
G1 X136.965 Y127.529 E7.86604
G1 X134.861 Y127.567 E7.89243
G1 X131.703 Y126.649 E7.93367
G1 X131.005 Y126.236 E7.94384
G1 X129.886 Y126.547 E7.95841
G1 X127.772 Y126.585 E7.98492
G1 X124.61 Y125.665 E8.02622
G1 X122.952 Y124.685 E8.05037
G1 X121.057 Y122.79 E8.08398
G1 X118.79 Y123.421 E8.11349
G1 X116.775 Y123.514 E8.13878
G1 X113.488 Y122.555 E8.18172
G1 X111.83 Y121.575 E8.20587
G1 X109.533 Y119.278 E8.24661
G1 X108.635 Y117.755 E8.26878
G1 X108.447 Y117.206 E8.27606
G1 X107.701 Y116.77 E8.28689
G1 X105.65 Y114.719 E8.32327
G1 X104.67 Y113.061 E8.34742
G1 X103.887 Y110.379 E8.38246
G1 X103.844 Y108.218 E8.40956
G1 X104.569 Y105.72 E8.44218
G1 X104.515 Y105.465 E8.44545
G1 X104.4 Y103.484 E8.47033
G1 X105.143 Y100.948 E8.50347
G1 X105.627 Y100.069 E8.51606
G1 X106.777 Y98.87 E8.53689
G1 X107.261 Y98.112 E8.54817
G1 X108.59 Y96.92 E8.57056
G1 X109.363 Y96.518 E8.58148
G1 X109.928 Y96.082 E8.59043
G1 X110.615 Y95.736 E8.60008
G1 X111.336 Y95.221 E8.61119
G1 X113.509 Y94.408 E8.64029
G1 X114.906 Y94.421 E8.65781
G1 X115.673 Y94.21 E8.66778
G1 X117.019 Y94.211 E8.68466
G1 X117.42 Y94.269 E8.68974
G1 X117.796 Y94.22 E8.6945
G1 X118.714 Y94.201 E8.70601
G1 X119.142 Y94.267 E8.71144
G1 X119.437 Y94.228 E8.71517
G1 X120.343 Y94.203 E8.72654
G1 X120.853 Y94.27 E8.73299
G1 X121.17 Y94.228 E8.737
G1 X122.155 Y94.201 E8.74936
G1 X122.613 Y94.271 E8.75517
G1 X123.901 Y94.146 E8.77139
G1 X124.244 Y94.203 E8.77576
G1 X124.388 Y93.881 E8.78018
G1 X125.815 Y92.185 E8.80797
G1 X127.309 Y91.275 E8.82991
G1 X129.02 Y90.7 E8.85255
G1 X131.213 Y90.504 E8.88016
G1 X191.028 Y90.589 E9.63026
G1 X193.159 Y90.923 E9.65731
G1 X195.433 Y92.293 E9.6906
G1 X196.744 Y93.903 E9.71664
G1 X196.884 Y94.25 E9.72133
G1 X198.298 Y93.973 E9.7394
G1 X199.156 Y94.237 E9.75066
G1 X199.542 Y94.2 E9.75552
G1 X200.454 Y94.231 E9.76696
G1 X200.684 Y94.265 E9.76988
G1 X201.265 Y94.2 E9.77721
G1 X202.155 Y94.224 E9.78838
G1 X202.755 Y94.212 E9.7959
G1 X203.796 Y94.224 E9.80896
G1 X204.275 Y94.297 E9.81503
G1 X205.946 Y94.05 E9.83622
G1 X207.891 Y94.383 E9.86096
G1 X209.111 Y94.886 E9.87751
G1 X209.887 Y95.424 E9.88935
G1 X210.595 Y95.834 E9.89961
G1 X211.486 Y96.623 E9.91454
G1 X212.236 Y96.985 E9.92498
G1 X213.578 Y98.233 E9.94796
G1 X214.345 Y99.326 E9.96471
G1 X214.636 Y100.021 E9.97416
G1 X215.355 Y100.96 E9.98899
G1 X216.081 Y104.223 E10.03091
G1 X215.794 Y105.517 E10.04753
G1 X215.978 Y106.242 E10.05691
G1 X216.005 Y108.003 E10.07899
G1 X215.889 Y108.531 E10.08577
G1 X216.627 Y111.077 E10.11902
G1 X216.751 Y113.169 E10.1453
G1 X215.853 Y116.371 E10.187
G1 X214.94 Y118.011 E10.21054
G0 F9000 X214.618 Y117.767
G1 F2700 X212.56 Y119.825 E10.24704
G1 X211.075 Y120.8 E10.26931
G1 X208.049 Y121.646 E10.30872
G1 X206.135 Y121.734 E10.33274
G1 X204.808 Y121.346 E10.35008
G1 X203.788 Y121.973 E10.3651
G1 X200.702 Y122.83 E10.40526
G1 X198.71 Y122.866 E10.43024
G1 X196.302 Y122.166 E10.46169
G1 X196.079 Y122.264 E10.46475
G1 X193.396 Y123.003 E10.49965
G1 X193.133 Y123.026 E10.50296
G1 X191.878 Y123.77 E10.52125
G1 X188.913 Y124.584 E10.55981
G1 X188.002 Y125.495 E10.57597
G1 X186.42 Y126.468 E10.59926
G1 X183.353 Y127.321 E10.63918
G1 X181.342 Y127.357 E10.6644
G1 X179.009 Y126.676 E10.69488
G1 X176.833 Y127.284 E10.72321
G1 X174.821 Y127.32 E10.74845
G1 X172.006 Y126.501 E10.78521
G1 X171.602 Y126.303 E10.79085
G1 X169.962 Y126.765 E10.81222
G1 X167.946 Y126.801 E10.83751
G1 X164.943 Y125.928 E10.87672
G1 X164.273 Y125.546 E10.8864
G1 X164.095 Y125.625 E10.88884
G1 X161.344 Y126.392 E10.92465
G1 X159.419 Y126.48 E10.94882
G1 X157.608 Y125.944 E10.9725
G1 X156.391 Y126.286 E10.98835
G1 X154.373 Y126.322 E11.01367
G1 X153.032 Y125.932 E11.03118
G1 X150.813 Y126.552 E11.06007
G1 X148.795 Y126.588 E11.08538
G1 X146.389 Y125.887 E11.11681
G1 X144.07 Y126.535 E11.147
G1 X142.051 Y126.571 E11.17233
G1 X140.316 Y126.065 E11.19499
G1 X139.824 Y126.318 E11.20193
G1 X136.909 Y127.13 E11.23988
G1 X134.914 Y127.166 E11.2649
G1 X131.863 Y126.279 E11.30474
G1 X131.062 Y125.805 E11.31641
G1 X129.83 Y126.148 E11.33245
G1 X127.825 Y126.184 E11.3576
G1 X124.77 Y125.295 E11.3975
G1 X123.2 Y124.367 E11.42037
G1 X121.175 Y122.342 E11.45628
G1 X118.73 Y123.023 E11.48811
G1 X116.822 Y123.111 E11.51206
G1 X113.648 Y122.185 E11.55353
G1 X112.078 Y121.257 E11.5764
G1 X109.852 Y119.031 E11.61587
G1 X108.98 Y117.552 E11.6374
G1 X108.78 Y116.938 E11.6455
G1 X107.949 Y116.452 E11.65757
G1 X105.968 Y114.471 E11.69271
G1 X105.04 Y112.901 E11.71558
G1 X104.286 Y110.318 E11.74932
G1 X104.245 Y108.271 E11.775
G1 X104.982 Y105.732 E11.80815
G1 X104.914 Y105.442 E11.81189
G1 X104.803 Y103.531 E11.83589
G1 X105.515 Y101.101 E11.86765
G1 X105.951 Y100.31 E11.87897
G1 X107.091 Y99.121 E11.89963
G1 X107.568 Y98.374 E11.91074
G1 X108.82 Y97.251 E11.93183
G1 X109.58 Y96.856 E11.94258
G1 X110.172 Y96.399 E11.95195
G1 X110.822 Y96.08 E11.96103
G1 X111.525 Y95.578 E11.97187
G1 X113.58 Y94.809 E11.99938
G1 X114.959 Y94.822 E12.01668
G1 X115.728 Y94.61 E12.02668
G1 X117.019 Y94.611 E12.04287
G1 X117.416 Y94.673 E12.04791
G1 X117.804 Y94.62 E12.05282
G1 X118.722 Y94.601 E12.06433
G1 X119.136 Y94.672 E12.0696
G1 X119.448 Y94.628 E12.07355
G1 X120.354 Y94.603 E12.08492
G1 X120.852 Y94.674 E12.09123
G1 X121.181 Y94.628 E12.09539
G1 X122.166 Y94.601 E12.10775
G1 X122.601 Y94.674 E12.11328
G1 X123.94 Y94.544 E12.13015
G1 X124.498 Y94.669 E12.13732
G1 X124.694 Y94.139 E12.14441
G1 X126.079 Y92.493 E12.17139
G1 X127.481 Y91.639 E12.19197
G1 X129.103 Y91.094 E12.21343
G1 X131.212 Y90.904 E12.23998
G1 X190.966 Y90.984 E12.98932
G1 X193.019 Y91.306 E13.01538
G1 X195.167 Y92.6 E13.04683
G1 X196.434 Y94.156 E13.07199
G1 X196.614 Y94.711 E13.07931
G1 X198.278 Y94.385 E13.10057
G1 X199.118 Y94.643 E13.11159
G1 X199.53 Y94.6 E13.11679
G1 X200.395 Y94.627 E13.12764
G1 X200.676 Y94.669 E13.1312
G1 X201.255 Y94.6 E13.13852
G1 X202.096 Y94.62 E13.14907
G1 X202.399 Y94.665 E13.15291
G1 X202.75 Y94.612 E13.15736
G1 X203.791 Y94.624 E13.17041
G1 X204.272 Y94.702 E13.17652
G1 X205.943 Y94.455 E13.19771
G1 X207.777 Y94.769 E13.22104
G1 X208.919 Y95.24 E13.23653
G1 X209.666 Y95.758 E13.24793
G1 X210.361 Y96.16 E13.258
G1 X211.263 Y96.959 E13.27311
