;START_OF_HEADER
;HEADER_VERSION:0.1
;FLAVOR:Griffin
;GENERATOR.NAME:Cura_SteamEngine
;GENERATOR.VERSION:5.6.0
;GENERATOR.BUILD_DATE:2023-11-28
;TARGET_MACHINE.NAME:Ultimaker S5
;EXTRUDER_TRAIN.0.INITIAL_TEMPERATURE:205
;EXTRUDER_TRAIN.0.MATERIAL.VOLUME_USED:10541
;EXTRUDER_TRAIN.0.MATERIAL.GUID:44a029e6-e31b-4c9e-a12f-9282e29a92ff
;EXTRUDER_TRAIN.0.NOZZLE.DIAMETER:0.4
;EXTRUDER_TRAIN.0.NOZZLE.NAME:AA 0.4
;BUILD_PLATE.INITIAL_TEMPERATURE:60
;BUILD_VOLUME.TEMPERATURE:28
;PRINT.TIME:4110
;PRINT.GROUPS:1
;PRINT.SIZE.MIN.X:126.085
;PRINT.SIZE.MIN.Y:103.03
;PRINT.SIZE.MIN.Z:0.2
;PRINT.SIZE.MAX.X:203.378
;PRINT.SIZE.MAX.Y:145.913
;PRINT.SIZE.MAX.Z:24.4
;SLICE_UUID:52e12e8e-3945-4a96-9aaf-c630d527f536
;END_OF_HEADER
;Generated with Cura_SteamEngine 5.6.0
T0
M82 ;absolute extrusion mode

G92 E0
M190 S60
M109 S205
G280 S1
G0 Z20.001
G1 F2700 E-6.5
;LAYER_COUNT:122
;LAYER:0
M106 S255
M204 S1500
M205 X30 Y30
G1 F600 Z2.2
G0 F9000 X201.834 Y141.398 Z2.2
;TYPE:SKIRT
G1 F600 Z0.2
G1 F2700 E0
G1 X199.364 Y143.874 E0.04386
G1 X197.581 Y144.935 E0.06988
G1 X194.238 Y145.871 E0.11341
G1 X191.894 Y145.913 E0.14281
G1 X188.514 Y144.93 E0.18695
G1 X186.682 Y143.847 E0.21364
G1 X184.268 Y141.432 E0.25646
G1 X183.01 Y139.308 E0.28742
G1 X182.833 Y136.969 E0.31684
G1 X169.139 Y136.969 E0.48856
G1 X166.978 Y136.375 E0.51667
G1 X164.979 Y134.843 E0.54825
G1 X164.707 Y135.148 E0.55338
G1 X162.702 Y136.457 E0.5834
G1 X160.51 Y136.969 E0.61163
G1 X146.66 Y136.969 E0.78532
G1 X146.695 Y137.455 E0.79143
G1 X146.105 Y139.924 E0.82326
G1 X145.021 Y141.616 E0.84846
G1 X142.901 Y143.736 E0.88606
G1 X141.155 Y144.882 E0.91225
G1 X137.618 Y145.871 E0.9583
G1 X135.28 Y145.913 E0.98763
G1 X131.904 Y144.931 E1.03172
G1 X130.07 Y143.847 E1.05844
G1 X127.336 Y141.113 E1.10692
G1 X126.423 Y139.405 E1.13121
G1 X126.085 Y138.045 E1.14878
G1 X126.088 Y135.704 E1.17814
G1 X126.788 Y133.468 E1.20752
G1 X128.031 Y131.912 E1.2325
G1 X127.888 Y131.497 E1.238
G1 X127.745 Y129.68 E1.26086
G1 X128.028 Y127.593 E1.28727
G1 X137.637 Y106.451 E1.5785
G1 X139.064 Y104.649 E1.60732
G1 X140.788 Y103.691 E1.63206
G1 X142.852 Y103.03 E1.65923
G1 X187.047 Y103.03 E2.21346
G1 X189.319 Y103.599 E2.24283
G1 X190.836 Y104.778 E2.26692
G1 X192.308 Y106.336 E2.2938
G1 X202.031 Y127.725 E2.58844
G1 X202.391 Y129.929 E2.61644
G1 X201.889 Y132.174 E2.64529
G1 X201.745 Y132.487 E2.64961
G1 X202.081 Y132.846 E2.65578
G1 X202.957 Y134.387 E2.67801
G1 X203.249 Y135.424 E2.69152
G1 X203.325 Y138.083 E2.72488
G1 X202.685 Y139.831 E2.74822
G1 X201.834 Y141.398 E2.77058
G0 F9000 X201.509 Y141.158
G1 F2700 X199.119 Y143.554 E2.81302
G1 X197.42 Y144.565 E2.83781
G1 X194.18 Y145.472 E2.88001
G1 X191.947 Y145.512 E2.90801
G1 X188.674 Y144.56 E2.95076
G1 X186.93 Y143.529 E2.97617
G1 X184.586 Y141.184 E3.01774
G1 X183.402 Y139.185 E3.04688
G1 X183.204 Y136.569 E3.07978
G1 X169.194 Y136.569 E3.25547
G1 X167.157 Y136.009 E3.28196
G1 X165.208 Y134.515 E3.31276
G1 X164.979 Y134.208 E3.31756
G1 X164.488 Y134.813 E3.32733
G1 X162.543 Y136.083 E3.35646
G1 X160.462 Y136.569 E3.38326
G1 X146.208 Y136.569 E3.56201
G1 X146.306 Y137.362 E3.57203
G1 X145.732 Y139.764 E3.603
G1 X144.707 Y141.364 E3.62683
G1 X142.646 Y143.425 E3.66338
G1 X140.987 Y144.514 E3.68827
G1 X137.56 Y145.472 E3.73289
G1 X135.333 Y145.512 E3.76082
G1 X132.064 Y144.561 E3.80352
G1 X130.318 Y143.529 E3.82895
G1 X127.661 Y140.872 E3.87607
G1 X126.798 Y139.258 E3.89903
G1 X126.485 Y137.998 E3.91531
G1 X126.488 Y135.766 E3.9433
G1 X127.147 Y133.66 E3.97097
G1 X128.487 Y131.982 E3.9979
G1 X128.287 Y131.466 E4.00484
G1 X128.147 Y129.689 E4.02719
G1 X128.416 Y127.706 E4.05229
G1 X137.981 Y106.661 E4.34218
G1 X139.328 Y104.96 E4.36939
G1 X140.948 Y104.06 E4.39263
G1 X142.915 Y103.43 E4.41853
G1 X186.998 Y103.43 E4.97135
G1 X189.138 Y103.966 E4.99901
G1 X190.545 Y105.053 E5.02131
G1 X191.972 Y106.563 E5.04736
G1 X201.645 Y127.842 E5.34049
G1 X201.984 Y129.919 E5.36688
G1 X201.499 Y132.087 E5.39474
G1 X201.26 Y132.563 E5.40142
G1 X201.733 Y133.044 E5.40988
G1 X202.586 Y134.544 E5.43151
G1 X202.85 Y135.484 E5.44376
G1 X202.923 Y138.017 E5.47554
G1 X202.309 Y139.693 E5.49792
G1 X201.509 Y141.158 E5.51885
G0 F9000 X201.186 Y140.916
G1 F2700 X198.87 Y143.237 E5.55997
G1 X197.261 Y144.194 E5.58345
G1 X194.122 Y145.073 E5.62433
G1 X192 Y145.111 E5.65094
G1 X188.834 Y144.19 E5.69229
G1 X187.178 Y143.211 E5.71641
G1 X184.904 Y140.936 E5.75675
G1 X183.794 Y139.062 E5.78407
G1 X183.575 Y136.169 E5.82045
G1 X169.249 Y136.169 E6.0001
G1 X167.336 Y135.643 E6.02498
G1 X165.451 Y134.198 E6.05477
G1 X165.006 Y133.517 E6.06497
G1 X164.269 Y134.478 E6.08016
G1 X162.384 Y135.709 E6.10839
G1 X160.414 Y136.169 E6.13376
G1 X145.736 Y136.169 E6.31783
G1 X145.917 Y137.269 E6.33181
G1 X145.359 Y139.604 E6.36191
G1 X144.393 Y141.112 E6.38437
G1 X142.391 Y143.114 E6.41987
G1 X140.819 Y144.146 E6.44346
G1 X137.502 Y145.073 E6.48665
G1 X135.386 Y145.111 E6.51319
G1 X132.224 Y144.191 E6.55448
G1 X130.566 Y143.211 E6.57864
G1 X127.986 Y140.631 E6.62439
G1 X127.173 Y139.111 E6.64601
G1 X126.885 Y137.951 E6.661
G1 X126.888 Y135.828 E6.68762
G1 X127.507 Y133.85 E6.71361
G1 X128.95 Y132.044 E6.7426
G1 X128.686 Y131.435 E6.75092
G1 X128.549 Y129.698 E6.77277
G1 X128.804 Y127.819 E6.79655
G1 X138.325 Y106.871 E7.08511
G1 X139.592 Y105.271 E7.1107
G1 X141.108 Y104.429 E7.13245
G1 X142.978 Y103.83 E7.15707
G1 X186.949 Y103.83 E7.70849
G1 X188.958 Y104.333 E7.73446
G1 X190.3 Y105.37 E7.75573
G1 X191.635 Y106.788 E7.78015
G1 X201.258 Y127.958 E8.07177
G1 X201.577 Y129.909 E8.09656
G1 X201.109 Y132 E8.12343
G1 X200.765 Y132.639 E8.13253
G1 X201.385 Y133.242 E8.14338
G1 X202.215 Y134.701 E8.16443
G1 X202.451 Y135.543 E8.17539
G1 X202.521 Y137.951 E8.2056
G1 X201.933 Y139.555 E8.22703
G1 X201.186 Y140.916 E8.2465
G0 F9000 X200.863 Y140.673
G1 F2700 X198.623 Y142.918 E8.28627
G1 X197.1 Y143.824 E8.30849
G1 X194.064 Y144.674 E8.34803
G1 X192.053 Y144.71 E8.37325
G1 X188.994 Y143.82 E8.4132
G1 X187.426 Y142.893 E8.43604
G1 X185.222 Y140.688 E8.47514
G1 X184.186 Y138.939 E8.50063
G1 X183.979 Y136.211 E8.53494
G1 X184.114 Y135.769 E8.54074
G1 X169.304 Y135.769 E8.72646
G1 X167.515 Y135.277 E8.74973
G1 X165.75 Y133.924 E8.77762
G1 X165.033 Y132.826 E8.79406
G1 X163.995 Y134.179 E8.81545
G1 X162.225 Y135.335 E8.84196
G1 X160.366 Y135.769 E8.8659
G1 X145.265 Y135.769 E9.05527
G1 X145.509 Y137.255 E9.07415
G1 X144.986 Y139.444 E9.10238
G1 X144.079 Y140.86 E9.12346
G1 X142.136 Y142.803 E9.15792
G1 X140.651 Y143.778 E9.1802
G1 X137.444 Y144.674 E9.22196
G1 X135.439 Y144.71 E9.2471
G1 X132.384 Y143.821 E9.287
G1 X130.814 Y142.893 E9.30988
G1 X128.311 Y140.39 E9.35427
G1 X127.548 Y138.964 E9.37455
G1 X127.285 Y137.904 E9.38824
G1 X127.288 Y135.891 E9.41349
G1 X127.867 Y134.042 E9.43778
G1 X129.211 Y132.359 E9.46479
G1 X129.456 Y132.171 E9.46867
G1 X129.085 Y131.404 E9.47935
G1 X128.951 Y129.707 E9.5007
G1 X129.192 Y127.932 E9.52316
G1 X138.669 Y107.081 E9.81038
G1 X139.856 Y105.582 E9.83436
G1 X141.268 Y104.798 E9.85461
G1 X143.041 Y104.23 E9.87796
G1 X186.9 Y104.23 E10.42797
G1 X188.779 Y104.701 E10.45226
G1 X190.056 Y105.687 E10.47249
G1 X191.298 Y107.013 E10.49528
G1 X200.872 Y128.075 E10.78541
G1 X201.17 Y129.899 E10.80859
G1 X200.719 Y131.913 E10.83447
G1 X200.264 Y132.71 E10.84598
G1 X201.065 Y133.489 E10.85999
G1 X201.844 Y134.858 E10.87974
G1 X202.052 Y135.602 E10.88943
G1 X202.119 Y137.886 E10.91808
G1 X201.582 Y139.363 E10.93779
G1 X200.863 Y140.673 E10.95653
G0 F9000 X200.54 Y140.43
G1 F2700 X198.376 Y142.599 E10.99495
G1 X196.939 Y143.454 E11.01592
G1 X194.006 Y144.275 E11.05412
G1 X192.106 Y144.309 E11.07795
G1 X189.154 Y143.45 E11.1165
G1 X187.674 Y142.575 E11.13806
G1 X185.54 Y140.44 E11.17592
G1 X184.578 Y138.816 E11.19959
G1 X184.378 Y136.181 E11.23273
G1 X184.709 Y135.369 E11.24372
G1 X169.359 Y135.369 E11.43622
G1 X167.694 Y134.911 E11.45787
G1 X166.049 Y133.65 E11.48387
G1 X165.024 Y132.079 E11.50739
G1 X164.933 Y132.3 E11.51039
G1 X163.721 Y133.88 E11.53536
G1 X162.063 Y134.962 E11.56019
G1 X160.322 Y135.369 E11.58261
G1 X144.793 Y135.369 E11.77735
G1 X145.101 Y137.241 E11.80114
G1 X144.613 Y139.284 E11.82748
G1 X143.765 Y140.608 E11.8472
G1 X141.881 Y142.492 E11.88061
G1 X140.483 Y143.41 E11.90158
G1 X137.386 Y144.275 E11.94191
G1 X135.492 Y144.309 E11.96566
G1 X132.542 Y143.45 E12.00419
G1 X131.063 Y142.576 E12.02573
G1 X128.636 Y140.149 E12.06878
G1 X127.923 Y138.817 E12.08772
G1 X127.685 Y137.857 E12.10013
G1 X127.688 Y135.953 E12.124
G1 X128.226 Y134.234 E12.14659
G1 X129.524 Y132.609 E12.17267
G1 X129.976 Y132.3 E12.17954
G1 X129.484 Y131.372 E12.19271
G1 X129.353 Y129.715 E12.21355
G1 X129.58 Y128.045 E12.23469
G1 X139.013 Y107.291 E12.52057
G1 X140.12 Y105.893 E12.54294
G1 X141.428 Y105.167 E12.5617
G1 X143.104 Y104.63 E12.58377
G1 X186.851 Y104.63 E13.13237
G1 X188.602 Y105.069 E13.15501
G1 X189.764 Y105.96 E13.17337
G1 X190.961 Y107.238 E13.19533
G1 X200.486 Y128.192 E13.48398
G1 X200.763 Y129.889 E13.50554
G1 X200.342 Y131.767 E13.52967
G1 X199.763 Y132.782 E13.54433
G1 X200.745 Y133.736 E13.5615
G1 X201.496 Y135.056 E13.58054
G1 X201.652 Y135.614 E13.58781
G1 X201.717 Y137.822 E13.61551
G1 X201.231 Y139.171 E13.63349
G1 X200.54 Y140.43 E13.6515
G0 F9000 X200.217 Y140.187
G1 F2700 X198.129 Y142.28 E13.68857
G1 X196.778 Y143.084 E13.70829
G1 X193.948 Y143.876 E13.74514
G1 X192.159 Y143.908 E13.76758
G1 X189.314 Y143.08 E13.80474
G1 X187.922 Y142.257 E13.82502
G1 X185.858 Y140.192 E13.86163
G1 X184.97 Y138.693 E13.88348
G1 X184.784 Y136.244 E13.91428
G1 X185.304 Y134.969 E13.93155
G1 X169.414 Y134.969 E14.13081
G1 X167.873 Y134.545 E14.15086
G1 X166.348 Y133.376 E14.17495
G1 X165.345 Y131.839 E14.19797
G1 X165.139 Y130.961 E14.20928
G1 X164.912 Y130.961 E14.21212
G1 X164.616 Y132.057 E14.22636
G1 X163.447 Y133.581 E14.25045
G1 X161.904 Y134.588 E14.27355
G1 X160.274 Y134.969 E14.29454
G1 X144.215 Y134.969 E14.49593
G1 X144.372 Y135.277 E14.50027
G1 X144.693 Y137.227 E14.52505
G1 X144.24 Y139.124 E14.54951
G1 X143.451 Y140.356 E14.56785
G1 X141.626 Y142.181 E14.60022
G1 X140.315 Y143.042 E14.61989
G1 X137.328 Y143.876 E14.65878
G1 X135.545 Y143.908 E14.68114
G1 X132.702 Y143.08 E14.71828
G1 X131.311 Y142.258 E14.73854
G1 X128.961 Y139.908 E14.78021
G1 X128.298 Y138.67 E14.79782
G1 X128.085 Y137.81 E14.80894
G1 X128.088 Y136.015 E14.83145
G1 X128.585 Y134.426 E14.85232
G1 X129.837 Y132.859 E14.87748
G1 X130.504 Y132.441 E14.88735
G1 X129.876 Y131.258 E14.90414
G1 X129.755 Y129.724 E14.92344
G1 X129.968 Y128.158 E14.94326
G1 X139.357 Y107.501 E15.22781
G1 X140.384 Y106.204 E15.24856
G1 X141.588 Y105.536 E15.26582
G1 X143.167 Y105.03 E15.28661
G1 X186.802 Y105.03 E15.83381
G1 X188.425 Y105.437 E15.8548
G1 X189.472 Y106.233 E15.87129
G1 X190.624 Y107.463 E15.89242
G1 X200.1 Y128.309 E16.17958
G1 X200.356 Y129.878 E16.19952
G1 X199.965 Y131.622 E16.22193
G1 X199.262 Y132.854 E16.23972
G1 X200.425 Y133.983 E16.26005
G1 X201.148 Y135.254 E16.27838
G1 X201.252 Y135.626 E16.28323
G1 X201.315 Y137.758 E16.30997
G1 X200.88 Y138.979 E16.32623
G1 X200.217 Y140.187 E16.34351
G0 F9000 X199.891 Y139.948
G1 F2700 X197.884 Y141.96 E16.37915
G1 X196.617 Y142.714 E16.39764
G1 X193.89 Y143.477 E16.43315
G1 X192.212 Y143.507 E16.45419
G1 X189.474 Y142.71 E16.48995
G1 X188.17 Y141.939 E16.50895
G1 X186.176 Y139.944 E16.54432
G1 X185.362 Y138.57 E16.56435
G1 X185.19 Y136.307 E16.59281
G1 X185.899 Y134.569 E16.61635
G1 X169.469 Y134.569 E16.82239
G1 X168.052 Y134.179 E16.84082
G1 X166.647 Y133.102 E16.86302
G1 X165.717 Y131.677 E16.88436
G1 X165.455 Y130.561 E16.89873
G1 X164.606 Y130.561 E16.90938
G1 X164.25 Y131.877 E16.92648
G1 X163.173 Y133.282 E16.94868
G1 X161.745 Y134.214 E16.97006
G1 X160.226 Y134.569 E16.98962
G1 X143.493 Y134.569 E17.19946
G1 X143.977 Y135.342 E17.2109
G1 X144.285 Y137.213 E17.23468
G1 X143.867 Y138.964 E17.25725
G1 X143.137 Y140.104 E17.27423
G1 X141.371 Y141.87 E17.30555
G1 X140.147 Y142.674 E17.32391
G1 X137.27 Y143.477 E17.36137
G1 X135.598 Y143.507 E17.38234
G1 X132.862 Y142.71 E17.41808
G1 X131.559 Y141.94 E17.43706
G1 X129.286 Y139.667 E17.47737
G1 X128.673 Y138.523 E17.49365
G1 X128.485 Y137.763 E17.50346
G1 X128.488 Y136.077 E17.52461
G1 X128.945 Y134.616 E17.5438
G1 X130.106 Y133.163 E17.56713
G1 X131.032 Y132.582 E17.58084
G1 X130.269 Y131.145 E17.60124
G1 X130.157 Y129.732 E17.61901
G1 X130.356 Y128.271 E17.6375
G1 X139.701 Y107.711 E17.92072
G1 X140.648 Y106.515 E17.93985
G1 X141.748 Y105.905 E17.95562
G1 X143.23 Y105.43 E17.97514
G1 X186.753 Y105.43 E18.52093
G1 X188.248 Y105.805 E18.54026
G1 X189.18 Y106.506 E18.55489
G1 X190.287 Y107.688 E18.57519
G1 X199.713 Y128.425 E18.86085
G1 X199.949 Y129.868 E18.87918
G1 X199.589 Y131.475 E18.89984
G1 X198.737 Y132.965 E18.92136
G1 X198.95 Y133.109 E18.92458
G1 X200.105 Y134.23 E18.94477
G1 X200.8 Y135.452 E18.9624
G1 X200.852 Y135.638 E18.96482
G1 X200.913 Y137.696 E18.99064
G1 X200.529 Y138.786 E19.00513
G1 X199.891 Y139.948 E19.02176
G0 F9000 X199.567 Y139.707
G1 F2700 X197.639 Y141.64 E19.05599
G1 X196.456 Y142.344 E19.07326
G1 X193.832 Y143.078 E19.10743
G1 X192.265 Y143.106 E19.12708
G1 X189.634 Y142.34 E19.16144
G1 X188.418 Y141.621 E19.17916
G1 X186.494 Y139.696 E19.21329
G1 X185.754 Y138.447 E19.23149
G1 X185.596 Y136.371 E19.2576
G1 X186.251 Y134.75 E19.27953
G1 X186.747 Y134.169 E19.28911
G1 X169.524 Y134.169 E19.50509
G1 X168.231 Y133.813 E19.52191
G1 X166.946 Y132.828 E19.54221
G1 X166.089 Y131.515 E19.56188
G1 X165.772 Y130.161 E19.57931
G1 X164.231 Y130.161 E19.59864
G1 X164.212 Y130.507 E19.60298
G1 X163.884 Y131.698 E19.61848
G1 X162.899 Y132.983 E19.63878
G1 X161.586 Y133.84 E19.65844
G1 X160.178 Y134.169 E19.67658
G1 X142.77 Y134.169 E19.89488
G1 X143.595 Y135.485 E19.91436
G1 X143.877 Y137.199 E19.93614
G1 X143.494 Y138.804 E19.95683
G1 X142.823 Y139.852 E19.97244
G1 X141.116 Y141.559 E20.00271
G1 X139.979 Y142.306 E20.01977
G1 X137.213 Y143.078 E20.05578
G1 X135.651 Y143.106 E20.07537
G1 X133.022 Y142.34 E20.10971
G1 X131.807 Y141.622 E20.12741
G1 X129.611 Y139.426 E20.16636
G1 X129.026 Y138.334 E20.18189
G1 X128.885 Y137.764 E20.18926
G1 X128.888 Y136.139 E20.20963
G1 X129.305 Y134.806 E20.22715
G1 X130.375 Y133.467 E20.24864
G1 X131.62 Y132.686 E20.26707
G1 X131.439 Y132.495 E20.27037
G1 X130.662 Y131.031 E20.29116
G1 X130.559 Y129.74 E20.3074
G1 X130.744 Y128.384 E20.32456
G1 X140.045 Y107.921 E20.60644
G1 X140.912 Y106.826 E20.62395
G1 X141.908 Y106.274 E20.63823
G1 X143.293 Y105.83 E20.65647
G1 X186.704 Y105.83 E21.20086
G1 X188.072 Y106.173 E21.21855
G1 X188.94 Y106.826 E21.23217
G1 X189.95 Y107.913 E21.25078
G1 X199.327 Y128.542 E21.53495
G1 X199.542 Y129.858 E21.55167
G1 X199.213 Y131.327 E21.57055
G1 X198.417 Y132.718 E21.59064
G1 X198.06 Y133.012 E21.59644
G1 X198.671 Y133.396 E21.60549
G1 X199.785 Y134.477 E21.62496
G1 X200.452 Y135.65 E21.64188
G1 X200.511 Y137.634 E21.66677
G1 X200.178 Y138.594 E21.67951
G1 X199.567 Y139.707 E21.69544
G0 F9000 X199.243 Y139.466
G1 F2700 X197.394 Y141.32 E21.72827
G1 X196.295 Y141.974 E21.74431
G1 X193.774 Y142.679 E21.77714
G1 X192.318 Y142.705 E21.7954
G1 X189.794 Y141.97 E21.82837
G1 X188.666 Y141.303 E21.8448
G1 X186.812 Y139.448 E21.87769
G1 X186.146 Y138.324 E21.89407
G1 X186.002 Y136.434 E21.91784
G1 X186.622 Y134.9 E21.93859
G1 X187.436 Y134.006 E21.95375
G1 X187.791 Y133.769 E21.95911
G1 X169.579 Y133.769 E22.18749
G1 X168.41 Y133.447 E22.2027
G1 X167.245 Y132.554 E22.2211
G1 X166.463 Y131.356 E22.23905
G1 X166.18 Y130.145 E22.25464
G1 X166.166 Y129.761 E22.25946
G1 X163.84 Y129.761 E22.28863
