;START_OF_HEADER
;HEADER_VERSION:0.1
;FLAVOR:Griffin
;GENERATOR.NAME:Cura_SteamEngine
;GENERATOR.VERSION:5.6.0
;GENERATOR.BUILD_DATE:2023-11-28
;TARGET_MACHINE.NAME:Ultimaker S5
;EXTRUDER_TRAIN.0.INITIAL_TEMPERATURE:205
;EXTRUDER_TRAIN.0.MATERIAL.VOLUME_USED:3840
;EXTRUDER_TRAIN.0.MATERIAL.GUID:44a029e6-e31b-4c9e-a12f-9282e29a92ff
;EXTRUDER_TRAIN.0.NOZZLE.DIAMETER:0.4
;EXTRUDER_TRAIN.0.NOZZLE.NAME:AA 0.4
;BUILD_PLATE.INITIAL_TEMPERATURE:60
;BUILD_VOLUME.TEMPERATURE:28
;PRINT.TIME:1979
;PRINT.GROUPS:1
;PRINT.SIZE.MIN.X:139.566
;PRINT.SIZE.MIN.Y:83.05
;PRINT.SIZE.MIN.Z:0.2
;PRINT.SIZE.MAX.X:190.5
;PRINT.SIZE.MAX.Y:157.084
;PRINT.SIZE.MAX.Z:5.4
;SLICE_UUID:5ab58d2c-71a4-481e-9642-045c44386733
;END_OF_HEADER
;Generated with Cura_SteamEngine 5.6.0
T0
M82 ;absolute extrusion mode

G92 E0
M190 S60
M109 S205
G280 S1
G0 Z20.001
G1 F2700 E-6.5
;LAYER_COUNT:17
;LAYER:0
M106 S255
M204 S1500
M205 X30 Y30
G1 F600 Z2.2
G0 F9000 X188.761 Y149.637 Z2.2
;TYPE:SKIRT
G1 F600 Z0.2
G1 F2700 E0
G1 X187.744 Y151.412 E0.02565
G1 X186.068 Y153.088 E0.05538
G1 X185.207 Y153.618 E0.06806
G1 X184.159 Y154.666 E0.08664
G1 X182.353 Y155.758 E0.11311
G1 X180.205 Y156.36 E0.14108
G1 X179.37 Y156.442 E0.1516
G1 X177.603 Y156.936 E0.17461
G1 X175.745 Y156.868 E0.19793
G1 X175.302 Y156.788 E0.20357
G1 X174.528 Y156.924 E0.21343
G1 X172.886 Y156.862 E0.23403
G1 X172.248 Y156.719 E0.24223
G1 X171.467 Y156.92 E0.25235
G1 X170.703 Y156.885 E0.26194
G1 X169.945 Y157.055 E0.27168
G1 X167.879 Y157.057 E0.29759
G1 X165.592 Y156.379 E0.3275
G1 X165.054 Y156.079 E0.33523
G1 X164.602 Y156.341 E0.34178
G1 X162.201 Y157.037 E0.37313
G1 X160.297 Y157.084 E0.39701
G1 X158.643 Y156.762 E0.41814
G1 X158.061 Y156.862 E0.42555
G1 X156.455 Y156.892 E0.44569
G1 X155.709 Y156.724 E0.45528
G1 X154.937 Y156.937 E0.46532
G1 X152.68 Y156.853 E0.49365
G1 X150.743 Y156.294 E0.51893
G1 X150.377 Y156.117 E0.52403
G1 X149.365 Y156.132 E0.53672
G1 X147.068 Y155.452 E0.56676
G1 X145.453 Y154.535 E0.59005
G1 X144.047 Y153.126 E0.61501
G1 X143.742 Y152.708 E0.6215
G1 X143.245 Y152.33 E0.62933
G1 X142.089 Y151.176 E0.64981
G1 X141.107 Y149.515 E0.67401
G1 X140.472 Y147.335 E0.70249
G1 X140.405 Y145.811 E0.72162
G1 X140.258 Y145.493 E0.72601
G1 X139.675 Y143.512 E0.75191
G1 X139.568 Y141.214 E0.78075
G1 X139.809 Y140.372 E0.79174
G1 X139.664 Y139.742 E0.79984
G1 X139.567 Y137.682 E0.82571
G1 X139.803 Y136.864 E0.83638
G1 X139.661 Y136.234 E0.84448
G1 X139.566 Y134.215 E0.86983
G1 X140.331 Y131.558 E0.9045
G1 X141.158 Y130.134 E0.92515
G1 X143.016 Y128.229 E0.95852
G1 X143.686 Y127.86 E0.96812
G1 X143.626 Y112.928 E1.15537
G1 X142.6 Y112.293 E1.1705
G1 X140.537 Y110.014 E1.20905
G1 X139.675 Y107.093 E1.24724
G1 X139.568 Y104.804 E1.27598
G1 X139.803 Y103.987 E1.28664
G1 X139.662 Y103.349 E1.29483
G1 X139.567 Y101.337 E1.32009
G1 X139.805 Y100.512 E1.33086
G1 X139.714 Y100.109 E1.33604
G1 X139.602 Y98.558 E1.35554
G1 X139.698 Y97.818 E1.3649
G1 X139.629 Y97.293 E1.37154
G1 X139.626 Y95.646 E1.39219
G1 X140.164 Y93.81 E1.41619
G1 X140.245 Y93.564 E1.41943
G1 X140.419 Y92.492 E1.43305
G1 X141.106 Y90.116 E1.46407
G1 X141.199 Y89.953 E1.46642
G1 X143.218 Y87.811 E1.50334
G1 X143.85 Y87.374 E1.51297
G1 X144.163 Y86.912 E1.51997
G1 X145.407 Y85.585 E1.54278
G1 X147.173 Y84.417 E1.56933
G1 X149.529 Y83.76 E1.6
G1 X150.008 Y83.727 E1.60603
G1 X150.298 Y83.599 E1.61
G1 X151.932 Y83.117 E1.63136
G1 X153.589 Y83.087 E1.65215
G1 X154.043 Y83.155 E1.6579
G1 X154.655 Y83.071 E1.66565
G1 X155.989 Y83.061 E1.68238
G1 X156.676 Y83.204 E1.69118
G1 X157.334 Y83.102 E1.69953
G1 X158.96 Y83.099 E1.71992
G1 X159.688 Y83.276 E1.72932
G1 X160.355 Y83.125 E1.73789
G1 X162.346 Y83.052 E1.76288
G1 X163.138 Y83.272 E1.77319
G1 X163.842 Y83.109 E1.78225
G1 X165.745 Y83.076 E1.80612
G1 X166.544 Y83.283 E1.81647
G1 X167.269 Y83.11 E1.82581
G1 X169.227 Y83.073 E1.85037
G1 X170.033 Y83.283 E1.86082
G1 X170.726 Y83.119 E1.86975
G1 X172.425 Y83.05 E1.89107
G1 X173.173 Y83.212 E1.90067
G1 X173.791 Y83.109 E1.90852
G1 X175.104 Y83.103 E1.92499
G1 X175.437 Y83.147 E1.9292
G1 X175.813 Y83.104 E1.93395
G1 X177.392 Y83.097 E1.95375
G1 X178.559 Y83.424 E1.96895
G1 X179.676 Y83.432 E1.98296
G1 X182.094 Y84.111 E2.01445
G1 X183.56 Y85.032 E2.03616
G1 X183.941 Y85.37 E2.04255
G1 X184.291 Y85.527 E2.04736
G1 X185.622 Y86.331 E2.06686
G1 X187.784 Y88.625 E2.10639
G1 X188.467 Y90.656 E2.13326
G1 X189.378 Y91.619 E2.14989
G1 X190.304 Y94.817 E2.19164
G1 X190.319 Y96.662 E2.21478
G1 X190.247 Y97.11 E2.22047
G1 X190.5 Y97.939 E2.23133
G1 X190.256 Y100.233 E2.26026
G1 X190.205 Y100.444 E2.26299
G1 X190.499 Y101.402 E2.27555
G1 X190.28 Y103.569 E2.30287
G1 X190.193 Y103.936 E2.3076
G1 X190.355 Y104.673 E2.31706
G1 X190.385 Y106.829 E2.3441
G1 X189.357 Y110.18 E2.38805
G1 X187.071 Y112.584 E2.42966
G1 X186.343 Y112.941 E2.43982
G1 X186.371 Y127.672 E2.62456
G1 X187.167 Y128.147 E2.63618
G1 X189.374 Y130.659 E2.67811
G1 X190.364 Y133.853 E2.72005
G1 X190.369 Y136.134 E2.74865
G1 X190.193 Y136.861 E2.75803
G1 X190.355 Y137.595 E2.76746
G1 X190.378 Y139.253 E2.78825
G1 X190.243 Y140.017 E2.79798
G1 X190.368 Y140.768 E2.80753
G1 X190.36 Y141.971 E2.82262
G1 X190.403 Y142.729 E2.83214
G1 X190.384 Y144.271 E2.85148
G1 X189.848 Y146.211 E2.87671
G1 X189.353 Y147.183 E2.89039
G1 X189.308 Y147.675 E2.89659
G1 X188.761 Y149.637 E2.92213
G0 F9000 X188.39 Y149.48
G1 F2700 X187.424 Y151.166 E2.9465
G1 X185.819 Y152.771 E2.97496
G1 X184.958 Y153.301 E2.98764
G1 X183.909 Y154.35 E3.00625
G1 X182.193 Y155.388 E3.0314
G1 X180.097 Y155.975 E3.05869
G1 X179.296 Y156.047 E3.06878
G1 X177.557 Y156.534 E3.09142
G1 X175.76 Y156.468 E3.11397
G1 X175.303 Y156.381 E3.11981
G1 X174.543 Y156.524 E3.12951
G1 X172.901 Y156.462 E3.15011
G1 X172.237 Y156.306 E3.15867
G1 X171.485 Y156.52 E3.16847
G1 X170.671 Y156.483 E3.17869
G1 X169.902 Y156.655 E3.18857
G1 X167.939 Y156.657 E3.21319
G1 X165.706 Y155.995 E3.24239
G1 X165.046 Y155.613 E3.25196
G1 X164.491 Y155.957 E3.26015
G1 X162.141 Y156.638 E3.29083
G1 X160.331 Y156.683 E3.31353
G1 X158.645 Y156.355 E3.33507
G1 X158.054 Y156.462 E3.3426
G1 X156.448 Y156.492 E3.36275
G1 X155.702 Y156.31 E3.37238
G1 X154.889 Y156.535 E3.38296
G1 X152.742 Y156.455 E3.4099
G1 X150.854 Y155.91 E3.43454
G1 X150.469 Y155.716 E3.43995
G1 X149.422 Y155.731 E3.45308
G1 X147.223 Y155.08 E3.48184
G1 X145.699 Y154.215 E3.50381
G1 X144.33 Y152.843 E3.52812
G1 X144.032 Y152.425 E3.53456
G1 X143.528 Y152.047 E3.54246
G1 X142.407 Y150.928 E3.56232
G1 X141.477 Y149.355 E3.58524
G1 X140.87 Y147.271 E3.61246
G1 X140.801 Y145.713 E3.63201
G1 X140.642 Y145.38 E3.63664
G1 X140.073 Y143.446 E3.66192
G1 X139.971 Y141.261 E3.68935
G1 X140.223 Y140.381 E3.70083
G1 X140.064 Y139.723 E3.70932
G1 X139.97 Y137.727 E3.73438
G1 X140.216 Y136.875 E3.7455
G1 X140.061 Y136.215 E3.754
G1 X139.969 Y134.26 E3.77855
G1 X140.701 Y131.718 E3.81172
G1 X141.48 Y130.376 E3.83118
G1 X143.26 Y128.551 E3.86315
G1 X144.157 Y128.056 E3.87599
G1 X144.085 Y127.628 E3.88144
G1 X144.025 Y112.705 E4.06858
G1 X142.858 Y111.982 E4.08579
G1 X140.895 Y109.814 E4.12247
G1 X140.073 Y107.027 E4.15891
G1 X139.971 Y104.849 E4.18625
G1 X140.216 Y103.997 E4.19737
G1 X140.062 Y103.33 E4.20595
G1 X139.97 Y101.382 E4.23041
G1 X140.218 Y100.522 E4.24163
G1 X140.113 Y100.08 E4.24733
G1 X140.001 Y98.529 E4.26683
G1 X140.102 Y97.819 E4.27583
G1 X140.029 Y97.292 E4.2825
G1 X140.026 Y95.703 E4.30242
G1 X140.544 Y93.935 E4.32553
G1 X140.635 Y93.658 E4.32918
G1 X140.814 Y92.556 E4.34318
G1 X141.49 Y90.227 E4.3736
G1 X143.478 Y88.118 E4.40994
G1 X144.14 Y87.66 E4.42004
G1 X144.455 Y87.186 E4.42717
G1 X145.667 Y85.893 E4.4494
G1 X147.344 Y84.784 E4.47461
G1 X149.636 Y84.145 E4.50445
G1 X150.103 Y84.124 E4.51031
G1 X150.411 Y83.983 E4.51456
G1 X151.994 Y83.516 E4.53526
G1 X153.53 Y83.483 E4.55452
G1 X154.04 Y83.559 E4.56099
G1 X154.658 Y83.471 E4.56882
G1 X155.947 Y83.461 E4.58498
G1 X156.666 Y83.611 E4.59419
G1 X157.335 Y83.502 E4.60269
G1 X158.911 Y83.499 E4.62246
G1 X159.686 Y83.688 E4.63246
G1 X160.37 Y83.525 E4.64128
G1 X162.301 Y83.454 E4.66551
G1 X163.131 Y83.685 E4.67631
G1 X163.849 Y83.509 E4.68558
G1 X165.699 Y83.477 E4.70879
G1 X166.545 Y83.696 E4.71975
G1 X167.277 Y83.51 E4.72922
G1 X169.18 Y83.474 E4.75309
G1 X170.03 Y83.695 E4.7641
G1 X170.742 Y83.519 E4.7733
G1 X172.392 Y83.452 E4.79401
G1 X173.165 Y83.619 E4.80392
G1 X173.793 Y83.509 E4.81192
G1 X175.106 Y83.503 E4.82838
G1 X175.431 Y83.55 E4.8325
G1 X175.815 Y83.504 E4.83735
G1 X177.338 Y83.497 E4.85645
G1 X178.503 Y83.824 E4.87163
G1 X179.62 Y83.832 E4.88563
G1 X181.93 Y84.48 E4.91572
G1 X183.295 Y85.332 E4.9359
G1 X183.722 Y85.71 E4.94305
G1 X184.084 Y85.869 E4.94801
G1 X185.369 Y86.645 E4.96683
G1 X187.433 Y88.835 E5.00457
G1 X188.116 Y90.867 E5.03145
G1 X189.021 Y91.823 E5.04796
G1 X189.904 Y94.874 E5.08779
G1 X189.924 Y96.598 E5.10941
G1 X189.837 Y97.139 E5.11629
G1 X190.093 Y97.978 E5.12729
G1 X189.858 Y100.191 E5.15519
G1 X189.789 Y100.45 E5.15856
G1 X190.093 Y101.441 E5.17155
G1 X189.882 Y103.529 E5.19787
G1 X189.782 Y103.934 E5.2031
G1 X189.955 Y104.679 E5.21269
G1 X189.984 Y106.773 E5.23896
G1 X189.003 Y109.971 E5.28091
G1 X186.829 Y112.257 E5.32047
G1 X185.942 Y112.692 E5.33286
G1 X185.973 Y127.646 E5.52038
G1 X185.932 Y127.877 E5.52333
G1 X186.91 Y128.46 E5.5376
G1 X189.017 Y130.858 E5.57764
G1 X189.964 Y133.913 E5.61775
G1 X189.969 Y136.086 E5.645
G1 X189.782 Y136.86 E5.65498
G1 X189.955 Y137.601 E5.66452
G1 X189.978 Y139.259 E5.68532
G1 X189.837 Y140.016 E5.69497
G1 X189.968 Y140.765 E5.70451
G1 X189.96 Y141.968 E5.7196
G1 X190.003 Y142.724 E5.72909
G1 X189.985 Y144.212 E5.74775
G1 X189.472 Y146.069 E5.77191
G1 X188.96 Y147.074 E5.78606
G1 X188.923 Y147.568 E5.79227
G1 X188.39 Y149.48 E5.81716
G0 F9000 X188.019 Y149.323
G1 F2700 X187.104 Y150.92 E5.84024
G1 X185.57 Y152.454 E5.86745
G1 X184.709 Y152.984 E5.88013
G1 X183.659 Y154.034 E5.89875
G1 X182.033 Y155.018 E5.92258
G1 X180.036 Y155.577 E5.94859
G1 X179.328 Y155.607 E5.95747
G1 X179.188 Y155.662 E5.95936
G1 X177.511 Y156.132 E5.9812
G1 X175.775 Y156.068 E6.00298
G1 X175.303 Y155.973 E6.00902
G1 X174.558 Y156.124 E6.01855
G1 X172.916 Y156.062 E6.03916
G1 X172.228 Y155.893 E6.04805
G1 X171.439 Y156.117 E6.05833
G1 X170.634 Y156.08 E6.06844
G1 X169.902 Y156.255 E6.07787
G1 X167.999 Y156.257 E6.10174
G1 X165.82 Y155.611 E6.13024
G1 X165.035 Y155.141 E6.14171
G1 X164.38 Y155.573 E6.15155
G1 X162.081 Y156.239 E6.18157
G1 X160.365 Y156.282 E6.20309
G1 X158.648 Y155.948 E6.22503
G1 X157.983 Y156.068 E6.2335
G1 X156.442 Y156.092 E6.25283
G1 X155.702 Y155.895 E6.26243
G1 X154.844 Y156.133 E6.2736
G1 X152.804 Y156.057 E6.2992
G1 X150.965 Y155.526 E6.3232
G1 X150.566 Y155.314 E6.32887
G1 X149.479 Y155.33 E6.3425
G1 X147.378 Y154.708 E6.36998
G1 X145.945 Y153.895 E6.39064
G1 X144.613 Y152.56 E6.41429
G1 X144.323 Y152.142 E6.42067
G1 X143.811 Y151.764 E6.42865
G1 X142.725 Y150.68 E6.44789
G1 X141.847 Y149.195 E6.46953
G1 X141.268 Y147.207 E6.49549
G1 X141.197 Y145.612 E6.51552
G1 X141.026 Y145.267 E6.52034
G1 X140.471 Y143.38 E6.54501
G1 X140.374 Y141.308 E6.57102
G1 X140.638 Y140.387 E6.58304
G1 X140.464 Y139.704 E6.59188
G1 X140.373 Y137.772 E6.61613
G1 X140.63 Y136.883 E6.62774
G1 X140.461 Y136.196 E6.63661
G1 X140.372 Y134.305 E6.66035
G1 X141.071 Y131.878 E6.69202
G1 X141.802 Y130.618 E6.71029
G1 X143.504 Y128.873 E6.74086
G1 X144.602 Y128.267 E6.75658
G1 X144.485 Y127.626 E6.76475
G1 X144.424 Y112.482 E6.95467
G1 X143.116 Y111.671 E6.97397
G1 X141.253 Y109.614 E7.00877
G1 X140.471 Y106.961 E7.04346
G1 X140.374 Y104.894 E7.0694
G1 X140.63 Y104.005 E7.08101
G1 X140.462 Y103.311 E7.08996
G1 X140.373 Y101.427 E7.11361
G1 X140.633 Y100.527 E7.12536
G1 X140.512 Y100.051 E7.13152
G1 X140.403 Y98.542 E7.15049
G1 X140.506 Y97.819 E7.15965
G1 X140.429 Y97.291 E7.16634
G1 X140.426 Y95.76 E7.18554
G1 X140.924 Y94.06 E7.20776
G1 X141.025 Y93.752 E7.21182
G1 X141.209 Y92.62 E7.2262
G1 X141.847 Y90.431 E7.2548
G1 X143.738 Y88.425 E7.28937
G1 X144.433 Y87.944 E7.29997
G1 X144.747 Y87.46 E7.3072
G1 X145.927 Y86.201 E7.32884
G1 X147.515 Y85.151 E7.35271
G1 X149.696 Y84.543 E7.38111
G1 X150.199 Y84.521 E7.38742
G1 X150.578 Y84.347 E7.39265
G1 X152.056 Y83.915 E7.41196
G1 X153.471 Y83.879 E7.42971
G1 X154.04 Y83.964 E7.43693
G1 X154.661 Y83.871 E7.4448
G1 X155.95 Y83.861 E7.46097
G1 X156.656 Y84.018 E7.47004
G1 X157.336 Y83.902 E7.47869
G1 X158.912 Y83.899 E7.49845
G1 X159.685 Y84.101 E7.50847
G1 X160.385 Y83.925 E7.51752
G1 X162.256 Y83.856 E7.541
G1 X163.128 Y84.099 E7.55235
G1 X163.856 Y83.909 E7.56179
G1 X165.653 Y83.878 E7.58432
G1 X166.548 Y84.11 E7.59592
G1 X167.285 Y83.91 E7.6055
G1 X169.133 Y83.875 E7.62867
G1 X170.029 Y84.108 E7.64028
G1 X170.758 Y83.919 E7.64973
G1 X172.408 Y83.852 E7.67044
G1 X173.156 Y84.027 E7.68007
G1 X173.795 Y83.909 E7.68822
G1 X175.108 Y83.903 E7.70469
G1 X175.424 Y83.955 E7.7087
G1 X175.817 Y83.904 E7.71367
G1 X177.284 Y83.897 E7.73207
G1 X178.447 Y84.224 E7.74722
G1 X179.564 Y84.232 E7.76123
G1 X181.766 Y84.849 E7.7899
G1 X183.03 Y85.632 E7.80855
G1 X183.505 Y86.052 E7.8165
G1 X183.877 Y86.211 E7.82157
G1 X185.116 Y86.959 E7.83972
G1 X187.082 Y89.045 E7.87567
G1 X187.765 Y91.078 E7.90256
G1 X188.664 Y92.027 E7.91896
G1 X189.505 Y94.932 E7.95688
G1 X189.529 Y96.534 E7.97698
G1 X189.427 Y97.166 E7.985
G1 X189.687 Y98.015 E7.99614
G1 X189.471 Y100.088 E8.02227
G1 X189.373 Y100.456 E8.02705
G1 X189.687 Y101.48 E8.04048
G1 X189.484 Y103.489 E8.0658
G1 X189.37 Y103.934 E8.07156
G1 X189.555 Y104.685 E8.08126
G1 X189.583 Y106.717 E8.10675
G1 X188.649 Y109.762 E8.14669
G1 X186.587 Y111.93 E8.18421
G1 X185.506 Y112.46 E8.19931
G1 X185.547 Y112.754 E8.20303
G1 X185.573 Y127.647 E8.3898
G1 X185.479 Y128.073 E8.39527
G1 X186.653 Y128.773 E8.41241
G1 X188.66 Y131.057 E8.45054
G1 X189.564 Y133.973 E8.48882
G1 X189.569 Y136.087 E8.51533
G1 X189.369 Y136.857 E8.52531
G1 X189.555 Y137.607 E8.535
G1 X189.578 Y139.265 E8.55579
G1 X189.43 Y140.014 E8.56537
G1 X189.568 Y140.762 E8.5749
G1 X189.56 Y141.965 E8.58999
G1 X189.603 Y142.719 E8.59946
G1 X189.586 Y144.153 E8.61745
G1 X189.095 Y145.929 E8.64055
G1 X188.567 Y146.966 E8.65515
G1 X188.527 Y147.501 E8.66187
G1 X188.019 Y149.323 E8.68559
G0 F9000 X187.648 Y149.166
G1 F2700 X186.784 Y150.674 E8.70739
G1 X185.321 Y152.137 E8.73333
G1 X184.46 Y152.667 E8.74601
G1 X183.409 Y153.718 E8.76465
G1 X181.873 Y154.648 E8.78717
G1 X179.975 Y155.179 E8.81189
G1 X179.244 Y155.21 E8.82106
G1 X179.042 Y155.289 E8.82378
G1 X177.465 Y155.73 E8.84432
G1 X175.79 Y155.668 E8.86534
G1 X175.305 Y155.565 E8.87155
G1 X174.527 Y155.722 E8.88151
G1 X172.931 Y155.662 E8.90153
G1 X172.222 Y155.479 E8.91072
G1 X171.393 Y155.714 E8.92152
G1 X170.598 Y155.678 E8.9315
G1 X169.855 Y155.855 E8.94108
G1 X168.059 Y155.857 E8.9636
G1 X165.981 Y155.241 E8.99078
G1 X165.025 Y154.668 E9.00476
G1 X164.21 Y155.206 E9.01701
G1 X162.021 Y155.84 E9.04559
G1 X160.399 Y155.881 E9.06593
G1 X158.65 Y155.541 E9.08828
G1 X157.977 Y155.668 E9.09686
G1 X156.436 Y155.692 E9.11619
G1 X155.705 Y155.479 E9.12574
G1 X154.799 Y155.731 E9.13753
G1 X152.866 Y155.659 E9.16179
G1 X151.119 Y155.154 E9.1846
G1 X150.663 Y154.913 E9.19106
G1 X149.536 Y154.929 E9.2052
G1 X147.533 Y154.336 E9.23139
G1 X146.191 Y153.575 E9.25074
G1 X144.896 Y152.277 E9.27373
G1 X144.616 Y151.861 E9.28002
G1 X144.094 Y151.481 E9.28812
G1 X143.043 Y150.432 E9.30674
G1 X142.217 Y149.035 E9.32709
G1 X141.666 Y147.143 E9.3518
G1 X141.604 Y145.743 E9.36938
G1 X141.619 Y145.559 E9.37169
G1 X141.41 Y145.154 E9.37741
G1 X140.869 Y143.314 E9.40146
G1 X140.777 Y141.355 E9.42605
